!!!!SEGMENT: pl-wnifc--2227-n--001-003_mikuli-karol--grand-duo-op-26-lento-quasi-fantasia.krn
!!!cenid: 18xx:3883
!!!COM: Mikuli, Karol
!!!COM-rismID: pe106110
!!!CDT: 1819-1897
!!!CNT:
!!!OPR: Grand Duo op. 26
!!!OTL: Lento quasi Fantasia
!!!OMV: 003
!!!PDT:
!!!AGN:
!!!YEC: Copyright 2022 Narodowy Instytut Fryderyka Chopina (https://polishscores.org)
!!!YEM: License CC-BY-4.0 (https://creativecommons.org/licenses/by/4.0)
!!!SMS-siglum: PL-Wnifc
!!!SMS-shelfmark: 2227/n
!!!SMS-shelfwork: 001-003 M
!!!SMS-variant:
!!!SMS-altvar:
!!!NIFC-rismSourceID: 300605262
!!!NIFC-rismChildID: 300605262
!!!NIFC-islandoraID: nifc:211849
!!!URL-pdf-islandora: https://repozytorium.nifc.pl/islandora/object/nifc%3A211849/datastream/PDF/view
!!!URL-scan: https://polish.musicsources.pl/pl/lokalizacje/galeria/druki-muzyczne/16806 @EN{Scan on Polish Music Sources Website} @PL{Skany w portalu Dziedzictwo Muzyki Polskiej w otwartym dostępie}
!!!IIIF:
!!!ONB-nifc: UWAGA: części Duetu: 1. Andante con espressione, 2. Allegro giojoso, 3. Lento quasi Fantasia, 4. Finale. Allegro appassionato
!!!AIN: 2 piano 1 violn
!!!key: A
**kern	**fing	**dynam	**kern	**fing	**dynam	**kern	**dynam	**dynam
*part3	*	*	*part2	*	*	*part1	*	*
*staff3	*	*	*staff2	*	*	*staff1	*	*
*I"Piano	*	*	*	*	*	*I"Violino	*	*
*I'pf	*	*	*I'pf	*	*	*I'vl	*	*
*Ipiano	*	*	*Ipiano	*	*	*Ivioln	*	*
*ICklav	*	*	*ICklav	*	*	*ICstr	*	*
*clefF4	*	*	*clefG2	*	*	*clefG2	*	*
*k[f#c#g#]	*	*	*k[f#c#g#]	*	*	*k[f#c#g#]	*	*
*A:	*	*	*A:	*	*	*A:	*	*
*M4/4	*	*	*M4/4	*	*	*M4/4	*	*
*met(c)	*	*	*met(c)	*	*	*met(c)	*	*
*	*	*	*	*	*	*cue	*	*
=1	=1	=1	=1	=1	=1	=1	=1	=1
!	!	!	!LO:TX:a:B:t=Lento quasi Fantasia.	!	!	!LO:TX:a:B:t=Lento quasi Fantasia.	!	!
2AA\ 2A	.	.	2e/ 2a 2cc#	.	f	1r	.	.
4FF#/ 4F#	.	.	4d/ 4a 4dd	.	.	.	.	.
4EE/ 4E	.	.	4d/ 4g# 4ee	.	.	.	.	.
=2||	=2||	=2||	=2||	=2||	=2||	=2||	=2||	=2||
!	!	!	!LO:TX:b:t=molto agitato\ndoppio movimento	!	!	!LO:TX:b:t=molto agitato\ndoppio movimento	!	!
2AAA/ 2AA	.	.	2c#/ 2a 2ee	.	.	2ccc#\	f	.
2r	.	.	2r	.	.	(4.ddd\	.	.
.	.	.	.	.	.	8eee\)	.	.
=3	=3	=3	=3	=3	=3	=3	=3	=3
1r	.	.	1r	.	.	(4eee\	.	.
.	.	.	.	.	.	4aa\)	.	.
.	.	.	.	.	.	8r	.	.
.	.	.	.	.	.	8aa`\L	.	.
.	.	.	.	.	.	(8aa\	.	.
.	.	.	.	.	.	8bb\J)	.	.
=4	=4	=4	=4	=4	=4	=4	=4	=4
1r	.	.	1r	.	.	(4.ccc#\	.	.
.	.	.	.	.	.	8aa\)	.	.
.	.	.	.	.	.	(4.ee\	.	.
.	.	.	.	.	.	8dd\)	.	.
=5	=5	=5	=5	=5	=5	=5	=5	=5
.	.	.	.	.	.	(>16qqcc#/LL	.	.
.	.	.	.	.	.	16qqdd/	.	.
.	.	.	.	.	.	16qqee/JJ	.	.
2r	.	.	2r	.	.	4dd\	.	.
.	.	.	.	.	.	4cc#\)	.	.
4AA\ 4A`	.	.	4e`/ 4cc#	.	f	8r	.	.
.	.	.	.	.	.	(8cc#~\L	.	.
4r	.	.	4r	.	.	8b~\	.	.
.	.	.	.	.	.	8cc#~\J)	.	.
=6	=6	=6	=6	=6	=6	=6	=6	=6
2r	.	.	2r	.	.	(4b\	.	.
.	.	.	.	.	.	4a/)	.	.
4GGn/ 4Gn	.	.	4e/ 4cc#	.	f	4r	.	.
4r	.	.	4r	.	.	4a/	.	.
=7||	=7||	=7||	=7||	=7||	=7||	=7||	=7||	=7||
*	*	*	*^	*	*	*	*	*
!	!	!	!	!	!	!	!LO:TX:a:t=lento Tempo I	!	!
[1FF# [1F#	.	.	(2cc#/	[1e	.	p	2a#X/	.	.
.	.	.	4.b/	.	.	.	(4.b\	.	.
.	.	.	8a#X/	.	.	.	8cc#\)	.	.
*	*	*	*v	*v	*	*	*	*	*
=8	=8	=8	=8	=8	=8	=8	=8	=8
!	!	!	!	!	!	!LO:TX:t=P:problem:klamra łukowa	!	!
1FF#_ 1F#_	.	.	1e_) [<1a#X	.	.	6cc#\	.	.
.	.	.	.	.	.	6f#/	.	.
.	.	.	.	.	.	6a#X/	.	.
!	!	!	!	!	!	!LO:TX:t=P:problem:klamra łukowa	!	!
!	!	!	!	!	!	!LO:TUP:a	!	!
.	.	.	.	.	.	6cc#\	.	.
.	.	.	.	.	.	6ee\	.	.
.	.	.	.	.	.	6ff#\	.	.
!!LO:LB:g=original
=9	=9	=9	=9	=9	=9	=9	=9	=9
.	.	.	.	.	.	(16qqee/LL	.	.
.	.	.	.	.	.	16qqff#/JJ	.	.
1FF#] 1F#]	.	.	1e] 1a#X]	.	.	2ggn\)	.	.
.	.	.	.	.	.	(8ff#\L	.	.
.	.	.	.	.	.	8ee\	.	.
.	.	.	.	.	.	8dd\	.	.
.	.	.	.	.	.	8cc#\J)	.	.
=10	=10	=10	=10	=10	=10	=10	=10	=10
2BB\ 2B	.	.	2d/ 2f# 2b 2dd	.	f	(8cc#\L	.	.
.	.	.	.	.	.	8b\J)	.	.
.	.	.	.	.	.	4r	.	.
4GGn/ 4Gn	.	.	4e/ 4b 4cc# 4ee	.	.	2r	.	.
4FF#/ 4F#	.	.	[4f#\ 4a#X 4cc# [4ff#	.	.	.	.	.
=11||	=11||	=11||	=11||	=11||	=11||	=11||	=11||	=11||
!	!	!	!LO:TX:a:t=agitato	!	!	!LO:TX:b:t=doppio movimento	!	!
!	!	!	!LO:TX:b:t=doppio movimento	!	!	!LO:TX:a:t=agitato	!LO:DY:a	!
2BBB/ 2BB	.	.	2f#\] 2b 2dd 2ff#]	.	.	2ddd\	f	.
2r	.	.	2r	.	.	(4.eee\	.	.
.	.	.	.	.	.	8fff#\)	.	.
=12	=12	=12	=12	=12	=12	=12	=12	=12
1r	.	.	1r	.	.	(4fff#\	.	.
.	.	.	.	.	.	4bb\)	.	.
.	.	.	.	.	.	8r	.	.
.	.	.	.	.	.	8bb`\L	.	.
.	.	.	.	.	.	(8bb\	.	.
.	.	.	.	.	.	8ccc#\J)	.	.
=13	=13	=13	=13	=13	=13	=13	=13	=13
1r	.	.	1r	.	.	(4.ddd\	.	.
.	.	.	.	.	.	8bb\)	.	.
.	.	.	.	.	.	(4.ff#\	.	.
.	.	.	.	.	.	8ee\)	.	.
=14	=14	=14	=14	=14	=14	=14	=14	=14
.	.	.	.	.	.	(>16qqdd/LL	.	.
.	.	.	.	.	.	16qqee/	.	.
.	.	.	.	.	.	16qqff#/JJ	.	.
2r	.	.	2r	.	.	4ee\	.	.
.	.	.	.	.	.	4dd\)	.	.
4BB\ 4B	.	.	4d/ 4f# 4b 4dd	.	f	8r	.	.
.	.	.	.	.	.	(8dd~\L	.	.
4r	.	.	4r	.	.	8cc#~\	.	.
.	.	.	.	.	.	8dd~\J)	.	.
=15	=15	=15	=15	=15	=15	=15	=15	=15
2r	.	.	2r	.	.	(4cc#\	.	.
.	.	.	.	.	.	4b\)	.	.
4AA\ 4A	.	.	4d/ 4f# 4b 4dd	.	f	8r	.	.
.	.	.	.	.	.	16r	.	.
.	.	.	.	.	.	16b`\	.	.
4r	.	.	4r	.	.	(8.b\L	.	.
.	.	.	.	.	.	16bb\Jk)	.	.
=16||	=16||	=16||	=16||	=16||	=16||	=16||	=16||	=16||
*	*	*	*^	*	*	*	*	*
!	!	!	!	!	!	!	!LO:TX:a:t=Lento	!	!
2GG#/ 2G#	.	.	(<2e#X/	1d	.	mf <	2.bb\	.	.
4FF#/ 4F#	.	.	4f#/	.	.	.	.	.	.
4EE#X/ 4E#X	.	.	4g#/)	.	.	.	[4bb\	.	.
*	*	*	*v	*v	*	*	*	*	*
!!LO:LB:g=original
=17	=17	=17	=17	=17	=17	=17	=17	=17
4FF#/ 4F#	.	.	4c#/ 4f#	.	.	8bb\]	.	.
.	.	.	.	.	.	4aa\	.	.
4EEn/ 4En	.	.	4A/ 4c# 4gn 4a	.	.	.	.	.
.	.	.	.	.	.	4ggn\	.	.
4DD/ 4D	.	.	4d/ 4f# 4a 4dd	.	.	.	.	.
.	.	.	.	.	.	4ff#\	.	.
4CC#/ 4C#	.	.	4e/ 4a 4cc# 4ee	.	.	.	.	.
.	.	.	.	.	[[	(8ee\	.	.
=18	=18	=18	=18	=18	=18	=18	=18	=18
*ped	*	*	*	*	*	*	*	*
8.CCn\L 8.Cn	.	.	8.f#\L 8.a 8.dd#X 8.ff#	.	.	4dd#X\)	.	.
16F#\Jk 16A 16d#X	.	.	16f#\Jk 16a 16dd# 16ff#	.	.	.	.	.
8F#\ 8A 8d#	.	.	8f#\ 8a 8dd# 8ff#	.	.	8r	.	.
*Xped	*	*	*	*	*	*	*	*
8r	.	.	8r	.	.	16r	.	.
.	.	.	.	.	.	16f#\ 16ff#	.	.
8r	.	.	8r	.	.	4.f#\ 4.ff#	.	.
16r	.	.	16r	.	.	.	.	.
*ped	*	*	*	*	*	*	*	*
16BBB/KL 16BB	.	.	16f#/KL 16a 16dd#	.	<	.	.	.
8F#/J 8A 8d#	.	.	8f#/J 8a 8dd#	.	.	.	.	.
*Xped	*	*	*	*	*	*	*	*
8r	.	.	8r	.	.	16r	.	.
.	.	.	.	.	.	16gn\ 16ggn	<	.
=19	=19	=19	=19	=19	=19	=19	=19	=19
*	*	*	*^	*	*	*	*	*
8r	.	.	8r	2ryy	.	.	4.gn\ 4.ggn	.	.
16r	.	.	16r	.	.	.	.	.	.
*ped	*	*	*	*	*	*	*	*	*
16BBB/KL 16BB	.	.	16gn\KL 16ddn	.	.	.	.	.	.
8B/J 8dn	.	.	8g\J 8dd	.	.	.	.	.	.
*Xped	*	*	*	*	*	*	*	*	*
8r	.	.	8r	.	.	.	16r	.	.
.	.	.	.	.	.	.	16g#X\ 16gg#X	<	.
!	!	!	!	!	!	!	!LO:TX:t=P:problem:klamra łukowa	!	!
!	!	!	!	!	!	!	!LO:TUP:a	!	!
4.BBB/ (<4.BB	.	.	8r	8ryy	.	.	6g#\ 6gg#	.	.
.	.	.	(8ffn/L	[4.fn\	.	>	.	.	.
.	.	.	.	.	.	.	6g#\ 6gg#	.	.
.	.	.	8ee/	.	.	.	.	.	.
.	.	.	.	.	.	.	6g#\ 6gg#	[[	.
8BB\) 8B	.	.	8dd/J	.	.	.	.	.	.
*	*	*	*v	*v	*	*	*	*	*
=20	=20	=20	=20	=20	=20	=20	=20	=20
!	!	!	!	!	!	!LO:TX:a:i:t=tranquillo\nespress.	!	!
2Cn\ 2A	.	.	2fn/]) 2ccn	.	] p	2a\ 2aa	>	.
2r	.	.	2r	.	.	(8ggn\L	.	.
.	.	.	.	.	.	8ffn\	.	.
.	.	.	.	.	.	8ee\	.	.
.	.	.	.	.	.	8dd\J)	]]	.
=21	=21	=21	=21	=21	=21	=21	=21	=21
[2CCn/	.	.	4r	.	p	2.ccn\	.	.
!	!	!	!LO:TX:a:i:t=espress.	!	!	!	!	!
.	.	.	(4d/ 4b-X	.	>	.	.	.
2CC/] 2Cn	.	.	8cn/L 8a	.	.	.	.	.
.	.	.	8B-X/ 8gn	.	.	.	.	.
.	.	.	8A/ 8fn	.	.	4r	.	.
.	.	.	8Gn/J) 8e	.	]]	.	.	.
!!LO:LB:g=original
=22	=22	=22	=22	=22	=22	=22	=22	=22
4.FFn\ 4.Fn	.	.	4.fn/	.	.	(4aa\	.	.
.	.	.	.	.	.	8bb-X\L	.	.
8EE\ 8E	.	.	8c#X/ 8gn	.	.	8aa\J)	.	.
!	!	!	!	!	!	!LO:TX:t=P:problem:klamra łukowa	!	!
!	!	!	!	!	!	!LO:TUP:a	!	!
4DD\ 4D	.	.	((4d/ 4f	.	.	12aa\L	.	.
.	.	.	.	.	.	12ggn\	.	.
.	.	.	.	.	.	12ffn\J	.	.
.	.	.	.	.	.	(>16qqee/LL	.	.
.	.	.	.	.	.	16qqff/	.	.
.	.	.	.	.	.	16qqgg/JJ	.	.
!	!	!	!	!	!	!LO:TUP:a	!	!
4BBBn\ 4BBn	.	.	4G#</ ((4f)) 4g#X	.	.	12ff\L	.	.
.	.	.	.	.	.	12ee\	.	.
.	.	.	.	.	.	12dd\J)	.	.
=23	=23	=23	=23	=23	=23	=23	=23	=23
4CCn\ 4Cn	.	.	4A</ 4cn)) 4fn 4a	.	.	2.ccn\	.	.
!	!	!	!LO:TX:b:t=espress.	!	!	!	!	!
4r	.	.	(8e/L 8ccn	.	.	.	.	.
.	.	.	8d/J) 8b-X	.	.	.	.	.
!	!	!	!LO:TX:t=P:problem:klamra łukowa	!	!	!	!	!
!	!	!	!LO:TUP:b	!	!	!	!	!
2CC\ 2C	.	.	12d/L 12b-	.	.	.	.	.
.	.	.	12c/ 12a	.	.	.	.	.
.	.	.	12B-X/J 12gn	.	.	.	.	.
.	.	.	(16qqf#X/LL	.	.	.	.	.
.	.	.	16qqg/	.	.	.	.	.
!	!	!	!LO:TX:t=P:problem:klamra łukowa	!	!	!	!	!
.	.	.	16qqa/JJ	.	.	.	.	.
!	!	!	!LO:TUP:b	!	!	!	!	!
.	.	.	12B-/L) 12g	.	.	4r	.	.
.	.	.	12A/ 12fn	.	.	.	.	.
.	.	.	12Gn/J 12e	.	.	.	.	.
=24	=24	=24	=24	=24	=24	=24	=24	=24
4FFn/	.	.	4A/ 4fn	.	.	2aa\	f	.
4r	.	.	4r	.	.	.	.	.
2r	.	.	2r	.	.	(8ggn\L	.	.
.	.	.	.	.	.	8ffn\	.	.
.	.	.	.	.	.	8ee\	.	.
.	.	.	.	.	.	8dd\J)	.	.
=25	=25	=25	=25	=25	=25	=25	=25	=25
*ped	*below	*	*	*	*	*	*	*
[32qqFFFn/LLL	.	.	.	.	.	.	.	.
*	*	*	*^	*	*	*	*	*
[32qqFFn/	1	.	.	32qqcn/LLL	2	.	.	.	.
[32qqCn/	4	.	.	32qqfn/	4	.	.	.	.
[>32qqA/JJJ	1	.	.	[32qqa/JJJ	1	.	.	.	.
2.FFF/] 2.FF] 2.C] 2.A]	.	.	(2aa/	1a]	.	f >	(8ccn\L	.	.
.	.	.	.	.	.	.	8b-X\J)	.	.
.	.	.	.	.	.	.	(2a/	.	.
.	.	.	8ggn/L	.	.	.	.	.	.
.	.	.	8ff#/	.	.	.	.	.	.
*Xped	*	*	*	*	*	*	*	*	*
4Fn\ [4cn	.	.	8ee/	.	.	.	8bn\L	.	.
.	.	.	8dd#X/J)	.	.	]]	8cc\J)	.	.
!!LO:PB:g=original
=26	=26	=26	=26	=26	=26	=26	=26	=26	=26
*^	*	*	*	*	*	*	*	*	*
2c/]	[1E	.	.	[1ee	2a\	.	.	2e/	.	.
!	!	!	!	!	!	!	!LO:HP:t=dimin.	!	!	!
2c#X/	.	.	.	.	2a#X\	.	>	[2ee\	.	.
=27	=27	=27	=27	=27	=27	=27	=27	=27	=27	=27
2d/	1E]	.	.	(2.ee/]	1b	.	pp	4ee\]	>	.
.	.	.	.	.	.	.	.	2eee\	.	.
2G#/	.	.	.	.	.	.	.	.	.	.
.	.	.	.	4dd/)	.	.	.	[4eee\	.	.
*	*	*	*	*v	*v	*	*	*	*	*
=28	=28	=28	=28	=28	=28	=28	=28	=28	=28
!	!	!	!	!LO:TX:b:i:t=cantabile	!	!	!	!	!
!	!	!	!	!LO:TX:a:i:t=tempo del Tema	!	!	!	!	!
4A/	(>8A\L	.	p	(2cc#\	.	p	1eee_	]]	.
.	8AA\	.	.	.	.	.	.	.	.
4E/	8E\	.	.	.	.	.	.	.	.
.	8c#\J	.	.	.	.	.	.	.	.
4F#/	8F#\L	.	.	4dd\	.	.	.	.	.
.	8AA\	.	.	.	.	.	.	.	.
4G#/	8G#\	.	.	4ee\)	.	.	.	.	.
.	8d\J	.	.	.	.	.	.	.	.
=29	=29	=29	=29	=29	=29	=29	=29	=29	=29
4A/	8A\L	.	.	(4cc#\	.	.	8eee\L]	pp	.
.	8AA\	.	.	.	.	.	(16eee\L	.	.
.	.	.	.	.	.	.	16ddd\JJ)	.	.
4C#/	8C#\	.	.	4ee\	.	.	(16ddd\LL	.	.
.	.	.	.	.	.	.	16ccc#\)	.	.
.	8A\J	.	.	.	.	.	(16ccc#\	.	.
.	.	.	.	.	.	.	16bb\JJ)	.	.
2ryy	8c#\L	.	.	4aa\	.	.	(16bb\LL	.	.
.	.	.	.	.	.	.	16aa\)	.	.
.	8AA\	.	.	.	.	.	(16aa\	.	.
.	.	.	.	.	.	.	16gg#\JJ)	.	.
.	8E\	.	.	4bb\)	.	.	(16gg#\LL	.	.
.	.	.	.	.	.	.	16ff#\)	.	.
.	8d\J	.	.	.	.	.	(16ff#\	.	.
.	.	.	.	.	.	.	16ffn\JJ)	.	.
=30	=30	=30	=30	=30	=30	=30	=30	=30	=30
4A/	8A\L	.	.	(2cc#\ 2ccc#	.	.	[1ee	.	.
.	8AA\	.	.	.	.	.	.	.	.
4ryy	8E\	.	.	.	.	.	.	.	.
.	8c#\J	.	.	.	.	.	.	.	.
4F#/	8F#\L	.	.	4dd\ 4ddd	.	.	.	.	.
.	8AA\	.	.	.	.	.	.	.	.
4G#/	8G#\	.	.	4ee\ 4eee	.	.	.	.	.
.	8d\J	.	.	.	.	.	.	.	.
*v	*v	*	*	*	*	*	*	*	*
!!LO:LB:g=original
=31	=31	=31	=31	=31	=31	=31	=31	=31
8AA\ 8E 8A 8c#)	.	.	8cc#\) 8aa 8eee	.	.	(16ee\LL]	<	.
.	.	.	.	.	.	16dd\)	.	.
8r	.	.	8r	.	.	(16dd\	.	.
.	.	.	.	.	.	16cc#\JJ)	.	.
4r	.	.	4r	.	.	(16cc#\LL	.	<
.	.	.	.	.	.	16b\)	.	.
.	.	.	.	.	.	(16b\	.	.
.	.	.	.	.	.	16a\JJ)	.	.
2r	.	.	2r	.	.	(16a/LL	.	.
.	.	.	.	.	.	16g#/)	.	.
.	.	.	.	.	.	(16g#/	.	.
.	.	.	.	.	.	16f#/JJ)	.	.
.	.	.	.	.	.	(16f#/LL	.	.
.	.	.	.	.	.	16e/)	.	.
.	.	.	.	.	.	(16e/	.	.
.	.	.	.	.	.	16d/JJ)	[[	.
=32	=32	=32	=32	=32	=32	=32	=32	=32
4r	.	.	4r	.	.	1c#	f	.
!	!	!	!LO:TX:a:t=forte, agitato	!	!LO:DY:a	!	!	!
4CC#\ 4C#	.	.	4G#</ 4c# 4e#X	.	.	.	.	.
4FFF#\ 4FF#	.	.	4A</ 4c# 4f#	.	.	.	.	.
4BBB\ 4BB	.	.	4G#</ 4d 4g#	.	.	.	.	.
!!LO:LB:g=original
=33	=33	=33	=33	=33	=33	=33	=33	=33
4CC#/ 4C#	.	.	4c#/ 4e#X	.	.	1r	.	.
4BBB/ 4BB	.	.	4d/ 4g#	.	.	.	.	.
2AAA#X;/ 2AA#X	.	.	2c#;/ 2gn 2cc#	.	.	.	.	.
!	!	!	!LO:TX:a:i:t=Cadenza	!	!	!	!	!
N(>32GGn^\LLL	.	.	16.ryy	.	.	1r	.	.
32En\	.	.	.	.	.	.	.	.
32A#X\JJJ	.	.	.	.	.	.	.	.
32ryy	.	.	32c#/LLL	.	.	.	.	.
8ryy	.	.	32gn/ 32a#X	.	.	.	.	.
.	.	.	32een/	.	.	.	.	.
.	.	.	32g/ 32a#	.	.	.	.	.
.	.	.	32c#/JJJN)<	.	.	.	.	.
N(>32AAnX^\LLL	.	.	16.ryy	.	.	.	.	.
32Gn\	.	.	.	.	.	.	.	.
32c#\JJJ	.	.	.	.	.	.	.	.
32ryy	.	.	32e#/LLL	.	.	.	.	.
8ryy	.	.	32a#/ 32cc#	.	.	.	.	.
.	.	.	32ggn/	.	.	.	.	.
.	.	.	32a#/	.	.	.	.	.
.	.	.	32e#/JJJN)<	.	.	.	.	.
!!LO:LB:g=original
N(>32C#^\LLL	.	.	16.ryy	.	.	.	.	.
32A#X\	.	.	.	.	.	.	.	.
32e\JJJ	.	.	.	.	.	.	.	.
32ryy	.	.	32gn/LLL	.	.	.	.	.
8ryy	.	.	32cc#/ 32ee	.	.	.	.	.
.	.	.	32aa#X/	.	.	.	.	.
.	.	.	32cc#/ 32ee	.	.	.	.	.
.	.	.	32g/JJJN)<	.	.	.	.	.
N(>32E^\LLL	.	.	16.ryy	.	.	.	.	.
32c#\	.	.	.	.	.	.	.	.
32gn\JJJ	.	.	.	.	.	.	.	.
32ryy	.	.	32a#X/LLL	.	.	.	.	.
8ryy	.	.	32ee/ 32ggn	.	.	.	.	.
.	.	.	32ccc#/	.	.	.	.	.
.	.	.	32ee/ 32gg	.	.	.	.	.
.	.	.	32a#/JJJN)<	.	.	.	.	.
N(>32Gn^\LLL	.	.	16.ryy	.	.	1r	.	.
32e\	.	.	.	.	.	.	.	.
32a\JJJ	.	.	.	.	.	.	.	.
32ryy	.	.	32cc#/LLL	.	.	.	.	.
8ryy	.	.	32gg/ 32aa#X	.	.	.	.	.
.	.	.	32eee/	.	.	.	.	.
.	.	.	32gg/ 32aa#	.	.	.	.	.
.	.	.	32cc#/JJJN)<	.	.	.	.	.
*clefG2	*	*	*	*	*	*	*	*
N(>32A#X^\LLL	.	.	16.ryy	.	.	.	.	.
32gn\	.	.	.	.	.	.	.	.
32cc#\JJJ	.	.	.	.	.	.	.	.
*	*	*	*8va	*	*	*	*	*
32ryy	.	.	32ee#/LLL	.	.	.	.	.
8ryy	.	.	32aa#/ 32ccc#	.	.	.	.	.
.	.	.	32ggg/	.	.	.	.	.
.	.	.	32aa#/ 32ccc#	.	.	.	.	.
.	.	.	32ee#/JJJN)<	.	.	.	.	.
N(>32c#^\LLL	.	.	16.ryy	.	.	.	.	.
32a#X\	.	.	.	.	.	.	.	.
32ee\JJJ	.	.	.	.	.	.	.	.
32ryy	.	.	32gg/LLL	.	.	.	.	.
8ryy	.	.	32ccc#/ 32eee	.	.	.	.	.
.	.	.	32aaa#/	.	.	.	.	.
.	.	.	32ccc#/ 32eee	.	.	.	.	.
.	.	.	32gg/JJJN)<	.	.	.	.	.
!!LO:LB:g=original
*	*	*	*X8va	*	*	*	*	*
N(>32e^\LLL	.	.	16.ryy	.	.	.	.	.
32cc#\	.	.	.	.	.	.	.	.
32ggn\JJJ	.	.	.	.	.	.	.	.
*	*	*	*8va	*	*	*	*	*
32ryy	.	.	32aa#X/LLL	.	.	.	.	.
8ryy	.	.	32eee/ 32ggg	.	.	.	.	.
.	.	.	32cccc#/	.	.	.	.	.
.	.	.	32eee/ 32ggg	.	.	.	.	.
.	.	.	32aa#/JJJN)<	.	.	.	.	.
N(>32gn^\LLL	.	.	16.ryy	.	.	1r	.	.
32ee\	.	.	.	.	.	.	.	.
32aa#X\JJJ	.	.	.	.	.	.	.	.
32ryy	.	.	32ccc#/LLL	.	.	.	.	.
8ryy	.	.	32aaa#X/	.	.	.	.	.
.	.	.	32eeee/	.	.	.	.	.
.	.	.	32aaa#/	.	.	.	.	.
.	.	.	32ccc#/JJJN)<	.	.	.	.	.
*ped	*	*	*	*	*	*	*	*
N(>32g^\LLL	.	.	16.ryy	.	.	.	.	.
32ee\	.	.	.	.	.	.	.	.
32aan\JJJ	.	.	.	.	.	.	.	.
32ryy	.	.	32ccc#/LLL	.	.	.	.	.
8ryy	.	.	32aaan/	.	.	.	.	.
.	.	.	32eeee/	.	.	.	.	.
.	.	.	32aaa/	.	.	.	.	.
.	.	.	32ccc#/JJJN)<	.	.	.	.	.
*Xped	*	*	*	*	*	*	*	*
*ped	*	*	*	*	*	*	*	*
N(>32b#X^\LLL	.	.	16.ryy	.	.	.	.	.
32ee\	.	.	.	.	.	.	.	.
32gg#X\JJJ	.	.	.	.	.	.	.	.
32ryy	.	.	32ccc#/LLL	.	.	.	.	.
8ryy	.	.	32ggg#X/	.	.	.	.	.
.	.	.	32eeee/	.	.	.	.	.
.	.	.	32ggg#/	.	.	.	.	.
.	.	.	32ccc#/JJJN)<	.	.	.	.	.
*Xped	*	*	*	*	*	*	*	*
*ped	*	*	*	*	*	*	*	*
N(>32an^\LLL	.	.	16.ryy	.	.	.	.	.
32ee\	.	.	.	.	.	.	.	.
32ggn\JJJ	.	.	.	.	.	.	.	.
32ryy	.	.	32ccc#/LLL	.	.	.	.	.
8ryy	.	.	32gggn/	.	.	.	.	.
.	.	.	32eeee/	.	.	.	.	.
.	.	.	32ggg/	.	.	.	.	.
.	.	.	32ccc#/JJJN)<	.	.	.	.	.
*Xped	*	*	*	*	*	*	*	*
!!LO:PB:g=original
*ped	*	*	*X8va	*	*	*	*	*
N(>32a^\LLL	.	.	16.ryy	.	.	1r	.	.
32ee\	.	.	.	.	.	.	.	.
32ggn\JJJ	.	.	.	.	.	.	.	.
*	*	*	*8va	*	*	*	*	*
32ryy	.	.	32ccc#/LLL	.	.	.	.	.
8ryy	.	.	32gggn/	.	.	.	.	.
.	.	.	32eeee/	.	.	.	.	.
.	.	.	32ggg/	.	.	.	.	.
.	.	.	32ccc#/JJJN)<	.	.	.	.	.
*Xped	*	*	*	*	*	*	*	*
*ped	*	*	*	*	*	*	*	*
N(>32a^\LLL	.	.	16.ryy	.	.	.	.	.
32ff#\	.	.	.	.	.	.	.	.
32aa\JJJ	.	.	.	.	.	.	.	.
32ryy	.	.	32ddd/LLL	.	.	.	.	.
8ryy	.	.	32fff#/	.	.	.	.	.
.	.	.	32dddd/	.	.	.	.	.
.	.	.	32fff#/	.	.	.	.	.
.	.	.	32ddd/JJJN)<	.	.	.	.	.
*Xped	*	*	*	*	*	*	*	*
N(>32a-X^\LLL	.	.	16.ryy	.	.	.	.	.
32ffn\	.	.	.	.	.	.	.	.
32bb-X\JJJ	.	.	.	.	.	.	.	.
32ryy	.	.	32ddd/LLL	.	.	.	.	.
8ryy	.	.	32fffn/	.	.	.	.	.
.	.	.	32dddd/	.	.	.	.	.
.	.	.	32fff/	.	.	.	.	.
.	.	.	32ddd/JJJN)<	.	.	.	.	.
*ped	*	*	*	*	*	*	*	*
N(>32a-X^\LLL	.	.	16.ryy	.	.	.	.	.
32ff\	.	.	.	.	.	.	.	.
32ccc-X\JJJ	.	.	.	.	.	.	.	.
32ryy	.	.	32ddd-X/LLL	.	.	.	.	.
8ryy	.	.	32fff/	.	.	.	.	.
.	.	.	32dddd-X/	.	.	.	.	.
.	.	.	32fff/	.	.	.	.	.
.	.	.	32ddd-/JJJN)<	.	.	.	.	.
*Xped	*	*	*	*	*	*	*	*
="	="	="	="	="	="	=	=	=
*ped	*	*	*	*	*	*	*	*
N(>32a-X^\LLL	.	.	16.ryy	.	.	1r	.	.
32ff\	.	.	.	.	.	.	.	.
32ccc-X\JJJ	.	.	.	.	.	.	.	.
32ryy	.	.	32ddd-X/LLL	.	.	.	.	.
8ryy	.	.	32fff/	.	.	.	.	.
.	.	.	32dddd-X/	.	.	.	.	.
.	.	.	32fff/	.	.	.	.	.
.	.	.	32ddd-/JJJN)<	.	.	.	.	.
*Xped	*	*	*	*	*	*	*	*
!!LO:LB:g=original
*ped	*	*	*X8va	*	*	*	*	*
N(>32a-\LLL	.	.	16.ryy	.	.	.	.	.
32ffn\	.	.	.	.	.	.	.	.
32cccn\JJJ	.	.	.	.	.	.	.	.
*	*	*	*8va	*	*	*	*	*
32ryy	.	.	32cccn/LLL	.	.	.	.	.
8ryy	.	.	32fff/	.	.	.	.	.
.	.	.	32ccccn/	.	.	.	.	.
.	.	.	32fff/	.	.	.	.	.
.	.	.	32ccc/JJJN)<	.	.	.	.	.
N(>32fn\LLL	.	.	16.ryy	.	.	.	.	.
32ccn\	.	.	.	.	.	.	.	.
32aa-X\JJJ	.	.	.	.	.	.	.	.
32ryy	.	.	32aa-X/LLL	.	.	.	.	.
8ryy	.	.	32ccc/	.	.	.	.	.
.	.	.	32aaa-X/	.	.	.	.	.
.	.	.	32ccc/	.	.	.	.	.
.	.	.	32aa-/JJJN)<	.	.	.	.	.
*Xped	*	*	*	*	*	*	*	*
*ped	*	*	*	*	*	*	*	*
N(>32e\LLL	.	.	16.ryy	.	.	.	.	.
32ccn\	.	.	.	.	.	.	.	.
32ggn\JJJ	.	.	.	.	.	.	.	.
32ryy	.	.	32ggn/LLL	.	.	.	.	.
8ryy	.	.	32ccc/	.	.	.	.	.
.	.	.	32gggn/	.	.	.	.	.
.	.	.	32ccc/	.	.	.	.	.
.	.	.	32gg/JJJN)<	.	.	.	.	.
="	="	="	="	="	="	=	=	=
N(>32e\LLL	.	.	16.ryy	.	.	2r	.	.
32ccn\	.	.	.	.	.	.	.	.
32ggn\JJJ	.	.	.	.	.	.	.	.
32ryy	.	.	32gg/LLL	.	.	.	.	.
8ryy	.	.	32cccn/	.	.	.	.	.
.	.	.	32ggg/	.	.	.	.	.
.	.	.	32ccc/	.	.	.	.	.
.	.	.	32gg/JJJN)<	.	.	.	.	.
*Xped	*	*	*	*	*	*	*	*
*ped	*	*	*	*	*	*	*	*
N(>32e\LLL	.	.	16.ryy	.	.	.	.	.
32b#\	.	.	.	.	.	.	.	.
32gg#X\JJJ	.	.	.	.	.	.	.	.
32ryy	.	.	32gg#X/LLL	.	.	.	.	.
8ryy	.	.	32bb/	.	.	.	.	.
.	.	.	32ggg#X/	.	.	.	.	.
.	.	.	32bb/	.	.	.	.	.
.	.	.	32gg#/JJJN)<	.	.	.	.	.
!!LO:LB:g=original
*	*	*	*X8va	*	*	*	*	*
N(>32e\LLL	.	.	16.ryy	.	.	0.r	.	.
32b#\	.	.	.	.	.	.	.	.
32gg#\JJJ	.	.	.	.	.	.	.	.
*	*	*	*8va	*	*	*	*	*
32ryy	.	.	32gg#/LLL	.	.	.	.	.
8ryy	.	.	32bb/	.	.	.	.	.
.	.	.	32ggg#X/	.	.	.	.	.
.	.	.	32bb/	.	.	.	.	.
.	.	.	32gg#/JJJN)<	.	.	.	.	.
*Xped	*	*	*	*	*	*	*	*
*ped	*	*	*	*	*	*	*	*
N(>32d#X\LLL	.	.	16.ryy	.	.	.	.	.
32b#\	.	.	.	.	.	.	.	.
32ff\JJJ	.	.	.	.	.	.	.	.
32ryy	.	.	32bb/LLL	.	.	.	.	.
8ryy	.	.	32fff/	.	.	.	.	.
.	.	.	32bbb/	.	.	.	.	.
.	.	.	32fff/	.	.	.	.	.
.	.	.	32bb/JJJN)<	.	.	.	.	.
*Xped	*	*	*	*	*	*	*	*
!	!	!LO:DY:a	!	!	!	!	!	!
16d#X\LL	.	f	32aa-/LLL	.	.	.	.	.
.	.	.	32ddd#X/ 32fff	.	.	.	.	.
*ped	*	*	*	*	*	*	*	*
16a-\ 16ccn	.	.	32ccccn/	.	.	.	.	.
.	.	.	32ddd#/ 32fff	.	.	.	.	.
16ff\JJ	.	.	32aa-/	.	.	.	.	.
*	*	*	*X8va	*	*	*	*	*
.	.	.	32dd#/ 32ff	.	.	.	.	.
16r	.	.	32ccc/	.	.	.	.	.
.	.	.	32dd#/ 32ff	.	.	.	.	.
4ryy	.	.	32a-/	.	.	.	.	.
.	.	.	32d#X/ 32f#	.	.	.	.	.
.	.	.	32ccn/	.	.	.	.	.
.	.	.	32d#/ 32f#	.	.	.	.	.
*clefF4	*	*	*	*	*	*	*	*
.	.	.	32A</	.	.	.	.	.
.	.	.	32D#X</ 32F#<	.	.	.	.	.
.	.	.	32cn</	.	.	.	.	.
.	.	.	32D#</ 32F#<	.	.	.	.	.
*	*	*	*	*	*	*	*	*
1ryy	.	.	32AA</JJJ	.	.	.	.	.
.	.	.	2FFF#</ 2FF#<	.	.	.	.	.
*Xped	*	*	*	*	*	*	*	*
.	.	.	4.GGG#</ 4.GG#<	.	.	.	.	.
.	.	.	8AAA</ 8AA<	.	.	.	.	.
32ryy	.	.	.	.	.	.	.	.
1ryy	.	.	4DDD#X</ 4DD#X<	.	.	.	.	.
.	.	.	4FFF#</ 4FF#<	.	.	.	.	.
.	.	.	4AAA</ 4AA<	.	.	.	.	.
.	.	.	4BBB</ 4BB<	.	.	.	.	.
.	.	.	.	.	.	32ryy	.	.
*	*	*	*clefF4	*	*	*	*	*
!!LO:LB:g=original
=34||	=34||	=34||	=34||	=34||	=34||	=34||	=34||	=34||
(16qqAAA/LL 16qqAA	.	.	.	.	.	.	.	.
!	!	!	!	!	!	!LO:TX:a:B:t=Lento Tempo I.	!	!
16qqBBB/JJ) 16qqBB	.	.	.	.	.	.	.	.
*^	*	*	*^	*	*	*	*	*
1Cn	2.CCn\	.	.	4r	4ryy	.	.	4r	.	.
!	!	!	!	!LO:TX:a:B:t=Lento Tempo I.	!	!	!	!	!	!
.	.	.	.	(4A/	2.A\	.	f	2aa^\	.	.
.	.	.	.	4E/	.	.	.	.	.	.
.	4FFn\	.	.	4D#X/)	.	.	.	[4aa\	.	.
*	*	*	*	*v	*v	*	*	*	*	*
=35	=35	=35	=35	=35	=35	=35	=35	=35	=35
!	!	!	!	!LO:TX:b:i:t=allargando	!	!	!LO:TX:b:i:t=allargando	!	!
8C#X/	8EE\	.	.	8E\ 8A 8e	.	.	4aa\]	.	.
8r	8ryy	.	.	8r	.	.	.	.	.
4r	4ryy	.	.	4r	.	.	(8gg#\L	.	.
.	.	.	.	.	.	.	16ff#\Jk)	.	.
.	.	.	.	.	.	.	16r	.	.
*	*	*	*	*clefG2	*	*	*	*	*
8EE/ 8E	2ryy	.	.	8B/ 8dn 8g#	.	p	(8ee\L	.	.
8r	.	.	.	8r	.	.	16dd\Jk)	.	.
.	.	.	.	.	.	.	16r	.	.
4r	.	.	.	4r	.	.	(8cc#\L	.	.
.	.	.	.	.	.	.	16b\Jk)	.	.
.	.	.	.	.	.	.	16r	.	.
=36	=36	=36	=36	=36	=36	=36	=36	=36	=36
*	*	*	*	*^	*	*	*	*	*
(<8A/L	2AA\	.	.	1A 1a	(>4c#\	.	.	[1a	.	.
8G#/	.	.	.	.	.	.	.	.	.	.
8F#/	.	.	.	.	8d\L	.	p	.	.	.
!	!	!	!	!LO:TX:b:i:t=ritard.	!	!	!	!	!	!
8E/J	.	.	.	.	8c#\J	.	.	.	.	.
8D/L	2ryy	.	.	.	8f#\L	.	.	.	.	.
8C#/	.	.	.	.	8e\	.	.	.	.	.
8.BB/	.	.	.	.	8.d\	.	.	.	.	.
16C#/Jk)	.	.	.	.	[>16e\Jk)	.	.	.	.	.
*v	*v	*	*	*	*	*	*	*	*	*
*	*	*	*v	*v	*	*	*	*	*
=37	=37	=37	=37	=37	=37	=37	=37	=37
[2AAA/ [2AA	.	.	2.c#/ 2.e] 2.cc#	.	.	2.a/]	.	.
8.AAA/L] 8.AA]	.	.	.	.	.	.	.	.
!LO:TX:a:t=Risoluto	!	!	!	!	!	!	!	!
16CC#/Jk 16C#	.	f	.	.	.	.	.	.
16BBB/LL 16BB	.	.	4r	.	.	4r	.	.
16AAA/ 16AA	.	.	.	.	.	.	.	.
16GGG#/ 16GG#	.	.	.	.	.	.	.	.
16FFF#/JJ 16FF#	.	.	.	.	.	.	.	.
!!LO:PB:g=original
=38	=38	=38	=38	=38	=38	=38	=38	=38
*	*	*	*^	*	*	*	*	*
16EEE#X/LL 16EE#X	.	.	8r	8ryy	.	f	4r	.	.
*ped	*	*	*	*	*	*	*	*	*
32C#/L	.	.	.	.	.	.	.	.	.
32B/JJJ	.	.	.	.	.	.	.	.	.
!	!	!	!	!	!	!LO:HP:a	!	!	!
32C#\LLL	.	.	(8c#\L 8cc#	4.g#/ 4.b	.	<	.	.	.
32B\	.	.	.	.	.	.	.	.	.
32C#\	.	.	.	.	.	.	.	.	.
32B\JJJ	.	.	.	.	.	.	.	.	.
!	!	!	!	!	!	!LO:HP:a	!	!	!
32C#\LLL	.	.	8d\ 8dd	.	.	[ >	8r	.	.
32B\	.	.	.	.	.	.	.	.	.
32C#\	.	.	.	.	.	.	.	.	.
32B\JJJ	.	.	.	.	.	.	.	.	.
32C#\LLL	.	.	8c#\J) 8cc#	.	.	]	8c#/	.	.
32B\	.	.	.	.	.	.	.	.	.
*Xped	*	*	*	*	*	*	*	*	*
32C#\	.	.	.	.	.	.	.	.	.
32B\JJJ	.	.	.	.	.	.	.	.	.
*ped	*	*	*	*	*	*	*	*	*
16FF#\LL	.	.	(16d\LL 16f# 16a 16dd	2ryy	.	.	16B#X/LL	.	.
32C#\L 32F#	.	.	16c#\ 16cc#	.	.	.	16c#/	<	.
32A\JJJ	.	.	.	.	.	.	.	.	.
32C#\LLL 32F#	.	.	16dd\ 16ddd	.	.	.	16f#/	.	.
32A\	.	.	.	.	.	.	.	.	.
32C#\ 32F#	.	.	16cc#\JJ) 16ccc#	.	.	.	16a/JJ	.	.
*Xped	*	*	*	*	*	*	*	*	*
32A\JJJ	.	.	.	.	.	.	.	.	.
*ped	*	*	*	*	*	*	*	*	*
16GG#\LL	.	.	(16cc#\LL 16ee#X 16gg# 16ccc#	.	.	.	(16cc#\LL	.	.
32C#\L	.	.	16b\ 16bb	.	.	.	16dd\)	.	.
32B\JJJ	.	.	.	.	.	.	.	.	.
!	!	!	!	!	!	!	!LO:TX:t=P:problem:klamra łukowa	!	!
!	!	!	!	!	!	!	!LO:TUP:a	!	!
32C#\LLL	.	.	16a\ 16aa	.	.	.	24dd#X\	[	.
32B\	.	.	.	.	.	.	.	.	.
.	.	.	.	.	.	.	24ee\	.	.
32C#\	.	.	16g#\JJ) 16gg#	.	.	.	.	.	.
.	.	.	.	.	.	.	24ee#X\JJ	.	.
*Xped	*	*	*	*	*	*	*	*	*
32B\JJJ	.	.	.	.	.	.	.	.	.
!!LO:LB:g=original
=39	=39	=39	=39	=39	=39	=39	=39	=39	=39
*ped	*	*	*	*	*	*	*	*	*
16AAA\LL 16AA	.	.	8g#\L 8gg#	4cc#/	.	.	(8ee#X\L	.	.
(32C#\L 32F#	.	.	.	.	.	.	.	.	.
32c#\JJJ	.	.	.	.	.	.	.	.	.
32C#\LLL 32F#	.	.	8f#\J 8ff#	.	.	.	8ff#\J	.	.
32c#\	.	.	.	.	.	.	.	.	.
32C#\ 32F#	.	.	.	.	.	.	.	.	.
32c#\JJJ	.	.	.	.	.	.	.	.	.
32C#\LLL 32F#	.	.	4.ff#^\ 4.fff#	4ryy	.	.	16ff#\LL)	.	.
32c#\	.	.	.	.	.	.	.	.	.
32C#\ 32F#	.	.	.	.	.	.	(16dd\	.	.
32c#\JJJ	.	.	.	.	.	.	.	.	.
32C#\LLL 32F#	.	.	.	.	.	.	16cc#\	.	.
32c#\	.	.	.	.	.	.	.	.	.
32C#\ 32F#	.	.	.	.	.	.	16b\JJ	.	.
*Xped	*	*	*	*	*	*	*	*	*
32c#\JJJ)	.	.	.	.	.	.	.	.	.
*ped	*	*	*	*	*	*	*	*	*
16BBB\LL 16BB	.	.	.	2ryy	.	.	8a/)	.	.
(32F#\L	.	.	.	.	.	.	.	.	.
32d\JJJ	.	.	.	.	.	.	.	.	.
32F#\LLL	.	.	(16ee#X\LL 16eee#X	.	.	.	[4g#/	.	.
32d\	.	.	.	.	.	.	.	.	.
32F#\	.	.	16ff#\JJ 16fff#	.	.	.	.	.	.
32d\JJJ	.	.	.	.	.	.	.	.	.
32F#\LLL 32G#	.	.	16een\LL 16eeen	.	.	>	.	.	.
32d\	.	.	.	.	.	.	.	.	.
32F#\ 32G#	.	.	16dd\ 16ddd	.	.	.	.	.	.
32d\JJJ	.	.	.	.	.	.	.	.	.
32F#\LLL 32G#	.	.	16cc#\ 16ccc#	.	.	.	(16g#\LL]	.	.
32d\	.	.	.	.	.	.	.	.	.
32F#\ 32G#	.	.	16b\JJ) 16bb	.	.	]	16dd\JJ)	.	.
32d\JJJ)	.	.	.	.	.	.	.	.	.
*Xped	*	*	*	*	*	*	*	*	*
*	*	*	*v	*v	*	*	*	*	*
!!LO:LB:g=original
=40	=40	=40	=40	=40	=40	=40	=40	=40
*ped	*	*	*	*	*	*	*	*
16CC#\LL 16C#	.	.	(16b\LL 16ff# 16bb	.	.	(4dd\	.	.
32F#\L 32A	.	.	16a\ 16aa	.	.	.	.	.
32c#\JJJ	.	.	.	.	.	.	.	.
32F#\LLL 32A	.	.	16b\ 16bb	.	.	.	.	.
32c#\	.	.	.	.	.	.	.	.
32F#\ 32A	.	.	16b#X\JJ 16bb#X	.	.	.	.	.
32c#\JJJ	.	.	.	.	.	.	.	.
32F#\LLL 32A	.	.	16cc#\LL) 16ff# 16aa 16ccc#	.	.	4.cc#\)	.	.
32c#\	.	.	.	.	.	.	.	.
32F#\ 32A	.	.	(16e#X\ 16ee#X	.	.	.	.	.
32c#\JJJ	.	.	.	.	.	.	.	.
32F#\LLL 32A	.	.	16f#\ 16ff#	.	.	.	.	.
32c#\	.	.	.	.	.	.	.	.
32F#\ 32A	.	.	16g#\JJ 16gg#	.	.	.	.	.
32c#\JJJ	.	.	.	.	.	.	.	.
!	!	!	!LO:TUP:a	!	!	!	!	!
32F#\LLL 32A	.	.	24a\LL) 24cc# 24ff# 24aa	.	.	.	.	.
32c#\	.	.	.	.	.	.	.	.
.	.	.	(24c#\ 24cc#	.	<	.	.	.
32F#\ 32A	.	.	.	.	.	.	.	.
.	.	.	24d#X\ 24dd#X	.	.	.	.	.
32c#\JJJ	.	.	.	.	.	.	.	.
32F#\LLL 32A	.	.	24e#\ 24ee#	.	.	8cc#`\	.	.
32c#\	.	.	.	.	.	.	.	.
.	.	.	24f#\ 24ff#	.	.	.	.	.
32F#\ 32A	.	.	.	.	.	.	.	.
.	.	.	24g#\JJ 24gg#	.	.	.	.	.
*Xped	*	*	*	*	*	*	*	*
32c#\JJJ	.	.	.	.	.	.	.	.
*ped	*	*	*	*	*	*	*	*
16DD\LL 16D	.	.	8.a\L 8.aa	.	[ >	(8.cc#/L	.	.
32E#X\L	.	.	.	.	.	.	.	.
32B\JJJ	.	.	.	.	.	.	.	.
32E#\LLL	.	.	.	.	.	.	.	.
32B\	.	.	.	.	.	.	.	.
32E#\	.	.	16g#\Jk) 16gg#	.	]]	16e#X/Jk)	.	.
*Xped	*	*	*	*	*	*	*	*
32B\JJJ	.	.	.	.	.	.	.	.
!!LO:LB:g=original
=41	=41	=41	=41	=41	=41	=41	=41	=41
8F#\ 8A	.	.	16f#/LL 16ff#	.	.	(8g#/L	.	.
.	.	.	(32A</L 32c#<	.	.	.	.	.
.	.	.	32f#/JJJ	.	.	.	.	.
(8CC#\L 8C#	.	.	32A</LLL 32c#<	.	.	8f#/J)	.	.
.	.	.	32f#/	.	.	.	.	.
.	.	.	32A</ 32c#<	.	.	.	.	.
.	.	.	32f#/JJJ	.	.	.	.	.
8DD\ 8D	.	.	32A</LLL 32c#<	.	.	4r	.	.
.	.	.	32f#/	.	.	.	.	.
.	.	.	32A</ 32c#<	.	.	.	.	.
.	.	.	32f#/JJJ	.	.	.	.	.
8CC#\J) 8C#	.	.	32A</LLL 32c#<	.	.	.	.	.
.	.	.	32f#/	.	.	.	.	.
.	.	.	32A</ 32c#<	.	.	.	.	.
.	.	.	32f#/JJJ	.	.	.	.	.
(16DD\LL 16D	.	.	32A</LLL 32c#<	.	.	2r	.	.
.	.	.	32f#/	.	.	.	.	.
16CC#\ 16C#	.	.	32A</ 32c#<	.	.	.	.	.
.	.	.	32f#/JJJ	.	.	.	.	.
16DD\ 16D	.	.	32A</LLL 32c#<	.	.	.	.	.
.	.	.	32f#/	.	.	.	.	.
16CC#\JJ 16C#	.	.	32A</ 32c#<	.	.	.	.	.
.	.	.	32f#/JJJ	.	.	.	.	.
16BBB\LL 16BB	.	.	32A</LLL 32c#<	.	.	.	.	.
.	.	.	32f#/	.	.	.	.	.
16AAA\ 16AA	.	.	32A</ 32c#<	.	.	.	.	.
.	.	.	32f#/JJJ	.	.	.	.	.
16.GGG#\ 16.GG#	.	.	32A</LLL 32c#<	.	.	.	.	.
.	.	.	32f#/	.	.	.	.	.
.	.	.	32A</ 32c#<	.	.	.	.	.
32FFF#\JJk) 32FF#	.	.	32f#/JJJ)	.	.	.	.	.
!!LO:PB:g=original
=42	=42	=42	=42	=42	=42	=42	=42	=42
*	*	*	*^	*	*	*	*	*
*ped	*	*	*	*	*	*	*	*	*
16FFF#\LL 16FF#	.	.	16A#X/ 16e 16f#	8ryy	.	.	4r	.	.
(32C#\L 32F#	.	.	16r	.	.	.	.	.	.
32A#X\JJJ	.	.	.	.	.	.	.	.	.
32C#\LLL 32F#	.	.	(8f#\L 8ff#	4.cc#/ 4.ee	.	<	.	.	.
32A#\	.	.	.	.	.	.	.	.	.
32C#\ 32F#	.	.	.	.	.	.	.	.	.
32A#\JJJ	.	.	.	.	.	.	.	.	.
32C#\LLL 32F#	.	.	8gn\ 8ggn	.	.	[ >	8r	.	.
32A#\	.	.	.	.	.	.	.	.	.
32C#\ 32F#	.	.	.	.	.	.	.	.	.
32A#\JJJ	.	.	.	.	.	.	.	.	.
32C#\LLL 32F#	.	.	[<8f#\J) [8ff#	.	.	]	[8ff#\	.	.
32A#\	.	.	.	.	.	.	.	.	.
32C#\ 32F#	.	.	.	.	.	.	.	.	.
*Xped	*	*	*	*	*	*	*	*	*
32A#\JJJ)	.	.	.	.	.	.	.	.	.
*ped	*	*	*	*	*	*	*	*	*
16AAA#X\LL 16GG#X	.	.	16f#\KL] 16ff#]	2ryy	.	.	2ff#\]	.	.
(32D\L 32F#	.	.	8f#^\ 8ff#	.	.	.	.	.	.
32B\JJJ	.	.	.	.	.	.	.	.	.
32D\LLL 32F#	.	.	.	.	.	.	.	.	.
32B\	.	.	.	.	.	.	.	.	.
32D\ 32F#	.	.	[>16ff#\Jk [16fff#	.	.	sf	.	.	.
*Xped	*	*	*	*	*	*	*	*	*
32B\JJJ)	.	.	.	.	.	.	.	.	.
*ped	*	*	*	*	*	*	*	*	*
16AAA#X\LL 16AA#X	.	.	(16ff#\LL] 16fff#]	.	.	>	.	.	.
(32F#\L	.	.	16ee\ 16eee	.	.	.	.	.	.
32c#\JJJ	.	.	.	.	.	.	.	.	.
32F#\LLL	.	.	16dd\ 16ddd	.	.	.	.	.	.
32c#\	.	.	.	.	.	.	.	.	.
32F#\	.	.	16cc#\JJ 16ccc#	.	.	]	.	.	.
*Xped	*	*	*	*	*	*	*	*	*
32c#\JJJ)	.	.	.	.	.	.	.	.	.
*	*	*	*v	*v	*	*	*	*	*
!!LO:LB:g=original
=43	=43	=43	=43	=43	=43	=43	=43	=43
*ped	*	*	*	*	*	*	*	*
16BBB\LL 16BB	.	.	8ee\ 8eee)	.	.	(8ggn\L	.	.
(32F#\L	.	.	.	.	.	.	.	.
32d\JJJ	.	.	.	.	.	.	.	.
32F#\LLL	.	.	8r	.	.	8ff#\J)	.	.
32d\	.	.	.	.	.	.	.	.
32F#\	.	.	.	.	.	.	.	.
*Xped	*	*	*	*	*	*	*	*
32d\JJJ	.	.	.	.	.	.	.	.
*ped	*	*	*	*	*	*	*	*
32F#\LLL	.	.	(2dd^\ 2ddd	.	sfz	8r	.	.
32d\	.	.	.	.	.	.	.	.
32F#\	.	.	.	.	.	.	.	.
32d\JJJ	.	.	.	.	.	.	.	.
32F#\LLL	.	.	.	.	.	(8ff#\	.	.
32d\	.	.	.	.	.	.	.	.
32F#\	.	.	.	.	.	.	.	.
32d\JJJ	.	.	.	.	.	.	.	.
32F#\LLL	.	.	.	.	.	8gg#X\L	.	.
32d\	.	.	.	.	.	.	.	.
32F#\	.	.	.	.	.	.	.	.
32d\JJJ	.	.	.	.	.	.	.	.
32F#\LLL	.	.	.	.	.	8ff#\J)	.	.
32d\	.	.	.	.	.	.	.	.
32F#\	.	.	.	.	.	.	.	.
*Xped	*	*	*	*	*	*	*	*
32d\JJJ)	.	.	.	.	.	.	.	.
*ped	*	*	*	*	*	*	*	*
16CC#\LL 16C#	.	.	4cc#\) 4ccc#	.	.	8r	.	.
(32F#\L 32A	.	.	.	.	.	.	.	.
32c#\JJJ	.	.	.	.	.	.	.	.
32F#\LLL 32A	.	.	.	.	.	(8ff#\	.	.
32c#\	.	.	.	.	.	.	.	.
32F#\ 32A	.	.	.	.	.	.	.	.
*Xped	*	*	*	*	*	*	*	*
32c#\JJJ)	.	.	.	.	.	.	.	.
!!LO:LB:g=original
=44	=44	=44	=44	=44	=44	=44	=44	=44
*ped	*	*	*	*	*	*	*	*
16DD\LL 16D	.	.	(8cc#\L 8ccc#	.	.	8aa\L	.	.
(32F#\L	.	.	.	.	.	.	.	.
32A\JJJ	.	.	.	.	.	.	.	.
32F#\LLL	.	.	8b#X\J) 8bb#X	.	.	8ff#\J)	.	.
32A\	.	.	.	.	.	.	.	.
32F#\	.	.	.	.	.	.	.	.
32A\JJJ	.	.	.	.	.	.	.	.
32F#\LLL	.	.	4aa\ [4aaa	.	.	8r	.	.
32A\	.	.	.	.	.	.	.	.
32F#\	.	.	.	.	.	.	.	.
32A\JJJ	.	.	.	.	.	.	.	.
32F#\LLL	.	.	.	.	.	8ff#\	.	.
32A\	.	.	.	.	.	.	.	.
32F#\	.	.	.	.	.	.	.	.
32A\JJJ	.	.	.	.	.	.	.	.
*	*	*	*Xtuplet	*	*	*	*	*
32F#\LLL	.	.	(56aaa\LLL]	.	.	4fff#\	.	.
.	.	.	56ggg#\	.	.	.	.	.
32A\	.	.	.	.	.	.	.	.
.	.	.	56fff#\	.	.	.	.	.
.	.	.	56eee#X\	2	.	.	.	.
32F#\	.	.	.	.	.	.	.	.
.	.	.	56ggg#\	4	>	.	.	.
.	.	.	56fff#\	.	.	.	.	.
32A\JJJ	.	.	.	.	.	.	.	.
.	.	.	56eeen\	.	.	.	.	.
32F#\LLL	.	.	48ddd\	1	.	.	.	.
.	.	.	48ccc#\	3	.	.	.	.
32A\	.	.	.	.	.	.	.	.
.	.	.	48bb#X\	.	.	.	.	.
32F#\	.	.	48ddd\	4	.	.	.	.
.	.	.	48ccc#\	.	.	.	.	.
32A\JJJ	.	.	.	.	.	.	.	.
.	.	.	48bbn\	.	.	.	.	.
32F#\LLL	.	.	56aa\	1	.	(4B#X/	.	.
.	.	.	56gg#\	3	.	.	.	.
*Xped	*	*	*	*	*	*	*	*
32A\	.	.	.	.	.	.	.	.
.	.	.	56ff#\	2	.	.	.	.
.	.	.	56ee#X\	1	.	.	.	.
32F#\	.	.	.	.	.	.	.	.
.	.	.	56gg#\	4	.	.	.	.
.	.	.	56ff#\	.	.	.	.	.
32A\JJJ	.	.	.	.	.	.	.	.
.	.	.	56een\	.	.	.	.	.
32F#\LLL	.	.	48dd\	1	]	.	.	.
.	.	.	48cc#\	3	.	.	.	.
32A\	.	.	.	.	.	.	.	.
.	.	.	48b#\	.	.	.	.	.
32F#\	.	.	48a\	1	.	.	.	.
.	.	.	48g#\	3	.	.	.	.
32A\JJJ)	.	.	.	.	.	.	.	.
.	.	.	48f#\JJJ)	2	.	.	.	.
!!LO:LB:g=original
=45	=45	=45	=45	=45	=45	=45	=45	=45
*^	*	*	*^	*	*	*	*	*
*ped	*	*	*	*	*	*	*	*	*	*
!	!LO:N:vis=2	!	!	!	!	!	!	!	!	!
2C#/	32C#\LLL	.	.	8dd/	32dd\LLL	.	.	4c#/)	.	.
!	!	!	!	!	!	!	!LO:HP:a	!	!	!
.	32E#X\	.	.	.	(>32g#\	.	>	.	.	.
.	32G#\	.	.	.	32e#X\	.	.	.	.	.
.	32c#\JJJ	.	.	.	32g#\JJJ)	.	.	.	.	.
.	32G#\LLL	.	.	8cc#/	32cc#\LLL	.	]	.	.	.
.	32c#\	.	.	.	(>32g#\	.	.	.	.	.
.	32G#\	.	.	.	32e#\	.	.	.	.	.
.	32c#\JJJ	.	.	.	32g#\JJJ)	.	.	.	.	.
.	32G#\LLL	.	.	4ryy	(32e#\LLL	.	.	4r	.	.
.	32c#\	.	.	.	32g#\	.	.	.	.	.
.	32G#\	.	.	.	32e#\	.	.	.	.	.
.	32c#\JJJ	.	.	.	32g#\JJJ	.	.	.	.	.
.	32G#\LLL	.	.	.	32e#\LLL	.	.	.	.	.
.	32c#\	.	.	.	32g#\	.	.	.	.	.
.	32G#\	.	.	.	32e#\	.	.	.	.	.
*	*Xped	*	*	*	*	*	*	*	*	*
.	32c#\JJJ	.	.	.	32g#\JJJ)	.	.	.	.	.
*	*ped	*	*	*	*	*	*	*	*	*
2C#\	32A\LLL	.	.	2ryy	(32d#X\LLL	.	.	4r	.	.
.	32c#\	.	.	.	32f#\	.	.	.	.	.
.	32A\	.	.	.	32d#\	.	.	.	.	.
.	32c#\JJJ	.	.	.	32f#\JJJ	.	.	.	.	.
.	32A\LLL	.	.	.	32d#\LLL	.	.	.	.	.
.	32c#\	.	.	.	32f#\	.	.	.	.	.
.	32A\	.	.	.	32d#\	.	.	.	.	.
*	*Xped	*	*	*	*	*	*	*	*	*
.	32c#\JJJ	.	.	.	32f#\JJJ)	.	.	.	.	.
*	*ped	*	*	*	*	*	*	*	*	*
.	32G#\LLL	.	.	.	32e#\LLL	.	.	[4cc#\	.	.
.	32c#\	.	.	.	32g#\	.	.	.	.	.
.	32G#\	.	.	.	32e#\	.	.	.	.	.
.	32c#\JJJ	.	.	.	32g#\JJJ	.	.	.	.	.
.	32G#\LLL	.	.	.	32e#\LLL	.	.	.	.	.
.	32c#\	.	.	.	32g#\	.	.	.	.	.
.	32G#\	.	.	.	32e#\	.	.	.	.	.
*	*Xped	*	*	*	*	*	*	*	*	*
.	32c#\JJJ	.	.	.	32g#\JJJ	.	.	.	.	.
*v	*v	*	*	*	*	*	*	*	*	*
!!LO:LB:g=original
=46	=46	=46	=46	=46	=46	=46	=46	=46	=46
!LO:TX:b:i:t=legato il basso	!	!	!	!	!	!	!	!	!
4CC#/ 4C#	.	.	(4e#X/	(>32c#\LLL	.	.	4cc#\]	.	.
.	.	.	.	32dn\	.	.	.	.	.
.	.	.	.	32c#\	.	.	.	.	.
.	.	.	.	32d\JJJ	.	.	.	.	.
!	!	!	!LO:TX:b:i:t=poco a poco stringendo:dur=2q:ext=s:problem	!	!	!	!	!	!
.	.	.	.	32c#\LLL	.	.	.	.	.
.	.	.	.	32d\	.	.	.	.	.
.	.	.	.	32c#\	.	.	.	.	.
.	.	.	.	32d\JJJ)	.	.	.	.	.
4BBB/ 4BB	.	.	4g#/	(>32c#\LLL	.	.	(4e#X/	.	.
.	.	.	.	32d\	.	.	.	.	.
.	.	.	.	32c#\	.	.	.	.	.
.	.	.	.	32d\JJJ	.	.	.	.	.
.	.	.	.	32c#\LLL	.	.	.	.	.
.	.	.	.	32d\	.	.	.	.	.
.	.	.	.	32c#\	.	.	.	.	.
.	.	.	.	32d\JJJ)	.	.	.	.	.
4AAA/ 4AA	.	.	4f#/	(>32c#\LLL	.	.	4f#/	.	.
.	.	.	.	32d\	.	.	.	.	.
.	.	.	.	32c#\	.	.	.	.	.
.	.	.	.	32d\JJJ	.	.	.	.	.
.	.	.	.	32c#\LLL	.	.	.	.	.
.	.	.	.	32d\	.	.	.	.	.
.	.	.	.	32c#\	.	.	.	.	.
.	.	.	.	32d\JJJ)	.	.	.	.	.
4EEE#X/ 4EE#X	.	.	4b/)	(>32c#\LLL	.	.	4g#/)	.	.
.	.	.	.	32d\	.	.	.	.	.
.	.	.	.	32c#\	.	.	.	.	.
.	.	.	.	32d\JJJ	.	.	.	.	.
.	.	.	.	32c#\LLL	.	.	.	.	.
.	.	.	.	32d\	.	.	.	.	.
.	.	.	.	32c#\	.	.	.	.	.
.	.	.	.	32d\JJJ)	.	.	.	.	.
!!LO:LB:g=original
=47	=47	=47	=47	=47	=47	=47	=47	=47	=47
4FFF#/ 4FF#	.	.	(8.g#/L	32c#\LLL	.	.	(8.b/L	.	.
.	.	.	.	32d\	.	.	.	.	.
.	.	.	.	32c#\	.	.	.	.	.
.	.	.	.	32d\JJJ	.	.	.	.	.
.	.	.	.	32c#\LLL	.	.	.	.	.
.	.	.	.	32d\	.	.	.	.	.
.	.	.	16a/Jk	32c#\	.	.	16a/Jk)	.	.
.	.	.	.	32d\JJJ	.	.	.	.	.
4AAA/ 4AA	.	.	8.f#/L	32c#\LLL	.	.	(8.a/L	.	.
.	.	.	.	32d\	.	.	.	.	.
.	.	.	.	32c#\	.	.	.	.	.
.	.	.	.	32d\JJJ	.	.	.	.	.
.	.	.	.	32c#\LLL	.	.	.	.	.
.	.	.	.	32d\	.	.	.	.	.
.	.	.	16e#X/Jk	32c#\	.	.	16g#/Jk)	.	.
.	.	.	.	32d\JJJ	.	.	.	.	.
2CC#/ 2C#	.	.	4e#/)	32c#\LLL	.	.	4g#/	.	.
.	.	.	.	32d\	.	.	.	.	.
!	!	!	!	!LO:TX:b:i:t=cre-scen-do:problem:dynamics with line extensions	!	!LO:HP:b:i:t=cre-scen-do:ext=cd	!	!	!
.	.	.	.	32c#\	.	<	.	.	.
.	.	.	.	32d\JJJ	.	.	.	.	.
.	.	.	.	32c#\LLL	.	.	.	.	.
.	.	.	.	32d\	.	.	.	.	.
.	.	.	.	32c#\	.	.	.	.	.
.	.	.	.	32d\JJJ	.	.	.	.	.
.	.	.	4r	32c#\LLL	.	.	(4cc#\	.	.
.	.	.	.	32d\	.	.	.	.	.
.	.	.	.	32c#\	.	.	.	.	.
.	.	.	.	32d\JJJ	.	.	.	.	.
.	.	.	.	32c#\LLL	.	.	.	.	.
.	.	.	.	32d\	.	.	.	.	.
.	.	.	.	32c#\	.	.	.	.	.
.	.	.	.	32d\JJJ	.	.	.	.	.
!!LO:LB:g=original
=48	=48	=48	=48	=48	=48	=48	=48	=48	=48
2CCn/ 2Cn	.	.	(4f#/	(>32f#\LLL	.	.	4dd\)	.	.
.	.	.	.	32d\	.	.	.	.	.
.	.	.	.	32f#\	.	.	.	.	.
.	.	.	.	32d\JJJ	.	.	.	.	.
.	.	.	.	32e-X\LLL	.	.	.	.	.
.	.	.	.	32d\	.	.	.	.	.
.	.	.	.	32e-\	.	.	.	.	.
.	.	.	.	32d\JJJ)	.	.	.	.	.
.	.	.	4a/	(>32e-\LLL	.	.	(4f#/	.	.
.	.	.	.	32d\	.	.	.	.	.
.	.	.	.	32e-\	.	.	.	.	.
.	.	.	.	32d\JJJ	.	.	.	.	.
.	.	.	.	32e-\LLL	.	.	.	.	.
.	.	.	.	32d\	.	.	.	.	.
.	.	.	.	32e-\	.	.	.	.	.
.	.	.	.	32d\JJJ)	.	.	.	.	.
4BBB-X/ 4BB-X	.	.	4gn/	(>32e-\LLL	.	.	4gn/	.	.
.	.	.	.	32d\	.	.	.	.	.
.	.	.	.	32e-\	.	.	.	.	.
.	.	.	.	32d\JJJ	.	.	.	.	.
.	.	.	.	32e-\LLL	.	.	.	.	.
.	.	.	.	32d\	.	.	.	.	.
.	.	.	.	32e-\	.	.	.	.	.
.	.	.	.	32d\JJJ)	.	.	.	.	.
4FFF#/ 4FF#	.	.	4ccn/)	(>32e-\LLL	.	.	4a/)	.	.
.	.	.	.	32d\	.	[	.	.	.
.	.	.	.	32e-\	.	.	.	.	.
.	.	.	.	32d\JJJ	.	.	.	.	.
.	.	.	.	32e-\LLL	.	.	.	.	.
.	.	.	.	32d\	.	.	.	.	.
.	.	.	.	32e-\	.	.	.	.	.
.	.	.	.	32d\JJJ)	.	.	.	.	.
!!LO:LB:g=original
=49	=49	=49	=49	=49	=49	=49	=49	=49	=49
4GGGn/ 4GGn	.	.	(8.a/L	32e-X\LLL	.	.	(8.ccn\L	.	.
.	.	.	.	32d\	.	.	.	.	.
.	.	.	.	32e-\	.	.	.	.	.
.	.	.	.	32d\JJJ	.	.	.	.	.
.	.	.	.	32e-\LLL	.	.	.	.	.
.	.	.	.	32d\	.	.	.	.	.
!	!	!	!LO:TX:b:i:t=sem_pre:dur=1w1h1q1s:ext=cd:problem:text with line extensions	!	!	!	!	!	!
.	.	.	16b-X/Jk	32e-\	.	.	16b-X\Jk)	.	.
.	.	.	.	32d\JJJ	.	.	.	.	.
4BBB-X/ 4BB-X	.	.	8.gn/L	32e-\LLL	.	.	(8.b-/L	.	.
.	.	.	.	32d\	.	.	.	.	.
.	.	.	.	32e-\	.	.	.	.	.
.	.	.	.	32d\JJJ	.	.	.	.	.
.	.	.	.	32e-\LLL	.	.	.	.	.
.	.	.	.	32d\	.	.	.	.	.
.	.	.	16f#/Jk	32e-\	.	.	16a/Jk)	.	.
.	.	.	.	32d\JJJ	.	.	.	.	.
2DD/ 2D	.	.	4f#/)	32e-\LLL	.	.	4a/	.	.
.	.	.	.	32d\	.	.	.	.	.
.	.	.	.	32e-\	.	.	.	.	.
.	.	.	.	32d\JJJ	.	.	.	.	.
.	.	.	.	32e-\LLL	.	.	.	.	.
.	.	.	.	32d\	.	.	.	.	.
.	.	.	.	32e-\	.	.	.	.	.
.	.	.	.	32d\JJJ	.	.	.	.	.
.	.	.	4r	32e-\LLL	.	.	(4dd\	.	.
.	.	.	.	32d\	.	.	.	.	.
.	.	.	.	32e-\	.	.	.	.	.
.	.	.	.	32d\JJJ	.	.	.	.	.
.	.	.	.	32e-\LLL	.	.	.	.	.
.	.	.	.	32d\	.	.	.	.	.
.	.	.	.	32e-\	.	.	.	.	.
.	.	.	.	32d\JJJ	.	.	.	.	.
!!LO:PB:g=original
=50	=50	=50	=50	=50	=50	=50	=50	=50	=50
4CCn/ 4Cn	.	.	(4fn/	32e-X\LLL	.	.	4ffn\)	.	.
.	.	.	.	32en\	.	.	.	.	.
.	.	.	.	32f#X\	.	.	.	.	.
.	.	.	.	32gn\JJJ	.	.	.	.	.
.	.	.	.	32f#\LLL	.	.	.	.	.
.	.	.	.	32g\	.	.	.	.	.
.	.	.	.	32f#\	.	.	.	.	.
.	.	.	.	32g\JJJ	.	.	.	.	.
!	!	!	!	!	!	!	!LO:TX:b:i:t=string.	!	!
4EE-X/ 4E-X	.	.	4ccn/	32f#\LLL	.	.	(4a/	.	.
.	.	.	.	32g\	.	.	.	.	.
.	.	.	.	32f#\	.	.	.	.	.
.	.	.	.	32g\JJJ	.	.	.	.	.
.	.	.	.	32f#\LLL	.	.	.	.	.
.	.	.	.	32g\	.	.	.	.	.
.	.	.	.	32f#\	.	.	.	.	.
.	.	.	.	32g\JJJ	.	.	.	.	.
4DD-X/ 4D-X	.	.	4ffn/	32f#\LLL	.	.	4b-X\	.	.
.	.	.	.	32g\	.	.	.	.	.
.	.	.	.	32f#\	.	.	.	.	.
.	.	.	.	32g\JJJ	.	.	.	.	.
.	.	.	.	32f#\LLL	.	.	.	.	.
.	.	.	.	32g\	.	.	.	.	.
.	.	.	.	32f#\	.	.	.	.	.
.	.	.	.	32g\JJJ	.	.	.	.	.
4AAA/ 4AA	.	.	4ee-X/)	32f#\LLL	.	.	4ccn\)	.	.
.	.	.	.	32g\	.	.	.	.	.
.	.	.	.	32f#\	.	.	.	.	.
.	.	.	.	32g\JJJ	.	.	.	.	.
.	.	.	.	32f#\LLL	.	.	.	.	.
.	.	.	.	32g\	.	.	.	.	.
.	.	.	.	32f#\	.	.	.	.	.
.	.	.	.	32g\JJJ	.	.	.	.	.
!!LO:LB:g=original
=51	=51	=51	=51	=51	=51	=51	=51	=51	=51
*ped	*	*	*	*	*	*	*	*	*
16BB-X\LL	.	.	4dd-X/	(>32fn\LLL	.	f	[2cc#X\	f	.
.	.	.	.	32g-X\	.	.	.	.	.
(32BB-\L 32D-X 32Fn	.	.	.	32f\	.	.	.	.	.
32B-X\JJJ	.	.	.	32g-\JJJ	.	.	.	.	.
32BB-\LLL 32D- 32F	.	.	.	32f\LLL	.	.	.	.	.
32B-\	.	.	.	32g-\	.	.	.	.	.
32BB-\ 32D- 32F	.	.	.	32f\	.	.	.	.	.
32B-\JJJ	.	.	.	32g-\JJJ	.	.	.	.	.
32BB-\LLL 32D- 32F	.	.	4ryy	32f\LLL	.	.	.	.	.
32B-\	.	.	.	32g-\	.	.	.	.	.
32BB-\ 32D- 32F	.	.	.	32f\	.	.	.	.	.
32B-\JJJ	.	.	.	32g-\JJJ	.	.	.	.	.
32BB-\LLL 32D- 32F	.	.	.	32f\LLL	.	.	.	.	.
32B-\	.	.	.	32g-\	.	.	.	.	.
32BB-\ 32D- 32F	.	.	.	32f\	.	.	.	.	.
*Xped	*	*	*	*	*	*	*	*	*
32B-\JJJ)	.	.	.	32g-\JJJ)	.	.	.	.	.
*ped	*	*	*	*	*	*	*	*	*
!	!	!	!	!	!	!	!LO:TX:b:i:t=allargando	!	!
!	!	!	!	!	!	!	!LO:TUP:a	!	!
(32BBn\LLL 32C#X 32E#X	.	.	(32c#X/LLL 32g#X	2ryy	.	.	12cc#\L]	.	.
32Bn\	.	.	32cc#X/	.	.	.	.	.	.
32BB\ 32C# 32E#	.	.	32c#/ 32g#	.	.	.	.	.	.
.	.	.	.	.	.	.	(12b#X\	.	.
32B\JJJ	.	.	32cc#/JJJ	.	.	.	.	.	.
32BB\LLL 32C# 32E#	.	.	32c#/LLL 32g#	.	.	.	.	.	.
32B\	.	.	32cc#/	.	.	.	.	.	.
.	.	.	.	.	.	.	12dd\J	.	.
32BB\ 32C# 32E#	.	.	32c#/ 32g#	.	.	.	.	.	.
!	!	!	!LO:TX:b:i:t=cre_scen_do::problem:dynamics with line extensions	!	!	!LO:HP:b:i:t=cre-scen-do:ext=cd	!	!	!
32B\JJJ	.	.	32cc#/JJJ	.	.	<	.	.	.
!	!	!	!	!	!	!	!LO:TUP:a	!	!
32BB\LLL 32C# 32E#	.	.	32c#/LLL 32g#	.	.	.	12ee#X\L	.	.
32B\	.	.	32cc#/	.	.	.	.	.	.
32BB\ 32C# 32E#	.	.	32c#/ 32g#	.	.	.	.	.	.
.	.	.	.	.	.	.	12dd#X\	.	.
32B\JJJ	.	.	32cc#/JJJ	.	.	.	.	.	.
32BB\LLL 32C# 32E#	.	.	32c#/LLL 32g#	.	.	.	.	.	.
32B\	.	.	32cc#/	.	.	.	.	.	.
.	.	.	.	.	.	.	12cc#\J)	.	.
32BB\ 32C# 32E#	.	.	32c#/ 32g#	.	.	.	.	.	.
*Xped	*	*	*	*	*	*	*	*	*
32B\JJJ)	.	.	32cc#/JJJ)	.	.	.	.	.	.
*	*	*	*v	*v	*	*	*	*	*
!!LO:LB:g=original
=52	=52	=52	=52	=52	=52	=52	=52	=52
*ped	*	*	*	*	*	*	*	*
!	!	!	!	!	!	!LO:TX:t=P:problem:klamra łukowa	!	!
!	!	!	!	!	!	!LO:TUP:a	!	!
32AA#X\LLL 32C# 32F#	.	.	(32c#/LLL 32f#	.	.	12cc#\L	.	.
32A#X\	.	.	32a#X/ 32cc#	.	.	.	.	.
32AA#\ 32C# 32F#	.	.	32c#/ 32f#	.	.	.	.	.
.	.	.	.	.	.	12aa#X\	.	.
32A#\JJJ	.	.	32f#/JJJ 32cc#	.	.	.	.	.
32AA#\LLL 32C# 32F#	.	.	32c#/LLL 32f#	.	.	.	.	.
32A#\	.	.	32a#/ 32cc#	.	.	.	.	.
.	.	.	.	.	.	12ee#X\J	.	.
32AA#\ 32C# 32F#	.	.	32c#/ 32f#	.	[	.	.	.
*Xped	*	*	*	*	*	*	*	*
32A#\JJJ	.	.	32a#/JJJ) 32cc#	.	.	.	.	.
*ped	*	*	*	*	*	*	*	*
!	!	!	!	!	!	!LO:TX:t=P:problem:klamra łukowa	!	!
!	!	!	!	!	!	!LO:TUP:a	!	!
32BB\LLL 32F#	.	.	(32d#X/LLL 32f#	.	.	20gg#\LL	.	.
32B\	.	.	32g#/ 32dd#X	.	.	.	.	.
.	.	.	.	.	.	20ff#\	.	.
32BB\ 32F#	.	.	32d#/ 32f#	.	.	.	.	.
32B\JJJ	.	.	32g#/JJJ 32dd#	.	.	.	.	.
.	.	.	.	.	.	20dd#X\	.	.
32BB\LLL 32F#	.	.	32d#/LLL 32f#	.	.	.	.	.
.	.	.	.	.	.	20bn\	.	.
32B\	.	.	32g#/ 32dd#	.	.	.	.	.
32BB\ 32F#	.	.	32d#/ 32f#	.	.	.	.	.
.	.	.	.	.	.	20g#\JJ	.	.
*Xped	*	*	*	*	*	*	*	*
32B\JJJ	.	.	32g#/JJJ) 32dd#	.	.	.	.	.
*ped	*	*	*	*	*	*	*	*
32C#\LLL 32F#	.	.	(32c#/LLL 32f#	.	.	(4cc#\	.	.
32A#\	.	.	32a#/ 32cc#	.	.	.	.	.
32C#\ 32F#	.	.	32c#/ 32f#	.	.	.	.	.
32A#\JJJ	.	.	32a#/JJJ 32cc#	.	.	.	.	.
32C#\LLL 32F#	.	.	32c#/LLL 32f#	.	.	.	.	.
32A#\	.	.	32a#/ 32cc#	.	.	.	.	.
32C#\ 32F#	.	.	32c#/ 32f#	.	.	.	.	.
*Xped	*	*	*	*	*	*	*	*
32A#\JJJ	.	.	32a#/JJJ) 32cc#	.	.	.	.	.
*ped	*	*	*	*	*	*	*	*
32C#\LLL 32G#	.	.	(32c#/LLL 32e#X	.	.	4e#X/	.	.
32B\	.	.	32g#/ 32cc#	.	.	.	.	.
32C#\ 32G#	.	.	32c#/ 32e#	.	.	.	.	.
32B\JJJ	.	.	32g#/JJJ 32cc#	.	.	.	.	.
32C#\LLL 32G#	.	.	32c#/LLL 32e#	.	.	.	.	.
32B\	.	.	32g#/ 32cc#	.	.	.	.	.
32C#\ 32G#	.	.	32c#/ 32e#	.	.	.	.	.
*Xped	*	*	*	*	*	*	*	*
32B\JJJ	.	.	32g#/JJJ) 32cc#	.	.	.	.	.
!!LO:LB:g=original
=53	=53	=53	=53	=53	=53	=53	=53	=53
*ped	*	*	*	*	*	*	*	*
!LO:N:vis=2	!	!	!	!	!	!	!	!
4D#X\ 4F# 4G# 4B#X	.	.	(32f#/LLL	.	ff	4f#/)	.	.
.	.	.	32F#</	.	.	.	.	.
.	.	.	32G#</	.	.	.	.	.
.	.	.	32B</	.	.	.	.	.
.	.	.	32f#/	.	.	.	.	.
.	.	.	32f#/	.	.	.	.	.
.	.	.	32g#/	.	.	.	.	.
.	.	.	32b#X/JJJ	.	.	.	.	.
8.DD#X/L 8.D#	.	.	32ff#\LLL	.	.	[2ff#\	.	.
.	.	.	32ff#\	.	.	.	.	.
.	.	.	32gg#\	.	.	.	.	.
.	.	.	32bb#X\	.	.	.	.	.
.	.	.	32fff#\	.	.	.	.	.
.	.	.	32bb#\	.	.	.	.	.
16DD#/Jk 16D#	.	.	32gg#\	.	.	.	.	.
.	.	.	32ff#\JJJ)	.	.	.	.	.
*Xped	*	*	*	*	*	*	*	*
*ped	*	*	*	*	*	*	*	*
4CC#/ 4C#	.	.	(32fff#\LLL	.	.	.	.	.
.	.	.	32ccc#\	.	.	.	.	.
.	.	.	32aa#X\	.	.	.	.	.
.	.	.	32ff#\	.	.	.	.	.
.	.	.	32ff#\	.	.	.	.	.
.	.	.	32cc#\	.	.	.	.	.
.	.	.	32a#X\	.	.	.	.	.
.	.	.	32f#\JJJ	.	.	.	.	.
*Xped	*	*	*	*	*	*	*	*
*ped	*	*	*	*	*	*	*	*
4BBB#X/ 4BB#X	.	.	32ff#/LLL	.	.	4ff#\]	.	.
.	.	.	32dd#X/	.	.	.	.	.
.	.	.	32g#/	.	.	.	.	.
.	.	.	32f#/	.	.	.	.	.
.	.	.	32f#/	.	.	.	.	.
.	.	.	32d#X/	.	.	.	.	.
.	.	.	32G#</	.	.	.	.	.
*Xped	*	*	*	*	*	*	*	*
.	.	.	32F#</JJJ)	.	.	.	.	.
!!LO:PB:g=original
=54	=54	=54	=54	=54	=54	=54	=54	=54
*ped	*above	*	*	*	*	*	*	*
N(32CC#\LLL	.	.	8r	.	.	2ccc#\	>	.
32FF#\	.	.	.	.	.	.	.	.
32AA#X\	.	.	.	.	.	.	.	.
32C#\JJJ	1	.	.	.	.	.	.	.
8r	.	.	32C#/LLL	.	.	.	.	.
.	.	.	32F#/	.	.	.	.	.
.	.	.	32A#X/	.	.	.	.	.
.	.	.	32c#/JJJ	.	.	.	.	.
4r	.	.	32f#/LLL	.	.	.	.	.
.	.	.	32a#X/	.	.	.	.	.
*	*	*	*	*below	*	*	*	*
.	.	.	32cc#/	5	.	.	.	.
.	.	.	32f#/JJJ	2	.	.	.	.
.	.	.	32a#/LLL	.	.	.	.	.
.	.	.	32cc#/	1	.	.	.	.
.	.	.	32ff#/	.	.	.	.	.
*Xped	*	*	*	*	*	*	*	*
.	.	.	32ccc#/JJJ	.	.	.	.	.
*ped	*	*	*	*	*	*	*	*
N(>32c#>\LLL 32a#X>	.	.	8een/N) 8ff##X	.	.	2r	]]	.
32en>\	.	.	.	.	.	.	.	.
32f##X>\	.	.	.	.	.	.	.	.
32cc#>\JJJ	.	.	.	.	.	.	.	.
8r	.	.	32ee/LLL	.	.	.	.	.
.	.	.	32ff##/	.	.	.	.	.
.	.	.	32ccc#/	.	.	.	.	.
.	.	.	32ccc#/JJJ	.	.	.	.	.
*	*	*	*8va	*	*	*	*	*
8r	.	.	8cccc#\N)	.	.	.	.	.
*Xped	*	*	*X8va	*	*	*	*	*
8C#\ 8En	.	.	8A#</ 8c#	.	.	.	.	.
!!LO:LB:g=original
=55	=55	=55	=55	=55	=55	=55	=55	=55
*	*	*	*^	*	*	*	*	*
*ped	*	*	*	*	*	*	*	*	*
!	!	!	!	!	!	!LO:HP:a	!	!	!
N(32CC#\LLL	.	.	8E#X</ 8B< 8c#	2ryy	.	<	1r	.	.
32CCC#\	.	.	.	.	.	.	.	.	.
32CC#\	.	.	.	.	.	.	.	.	.
32CC#\JJJ	.	.	.	.	.	.	.	.	.
32GG#\LLL	.	.	16r	.	.	.	.	.	.
32C#\JJJ	.	.	.	.	.	.	.	.	.
16r	.	.	32E#</LLL	.	.	.	.	.	.
.	.	.	32G#</JJJ	.	.	.	.	.	.
4r	.	.	32c#/LLL	.	.	.	.	.	.
.	.	.	32e#X/	.	.	.	.	.	.
.	.	.	32g#/	.	.	.	.	.	.
.	.	.	32cc#/JJJ	.	.	.	.	.	.
.	.	.	32ee#X/LLL	.	.	[	.	.	.
.	.	.	32gg#/	.	.	.	.	.	.
.	.	.	32eee#X/	.	.	.	.	.	.
.	.	.	32ddd#X/JJJ	.	.	.	.	.	.
2r	.	.	32ccc#/LLL	4ryy	.	.	.	.	.
.	.	.	32gg#/	.	.	.	.	.	.
!	!	!	!	!	!	!LO:HP:a	!	!	!
.	.	.	32ee#/	.	.	>	.	.	.
.	.	.	32dd#X/JJJ	.	.	.	.	.	.
.	.	.	32cc#/LLL	.	.	.	.	.	.
.	.	.	32g#/	.	.	.	.	.	.
.	.	.	32ee#/	.	.	.	.	.	.
.	.	.	32dd#/JJJ	.	.	.	.	.	.
.	.	.	32cc#/LLL	8ryy	.	.	.	.	.
.	.	.	32g#/	.	.	.	.	.	.
.	.	.	32e#/	.	.	.	.	.	.
.	.	.	32d#X/JJJ	.	.	.	.	.	.
.	.	.	32c#/LLL	32c#\	.	.	.	.	.
*Xped	*	*	*	*	*	*	*	*	*
.	.	.	32B/	32B\	.	.	.	.	.
.	.	.	32g##X/	32g##X\	.	.	.	.	.
.	.	.	32e#/JJJN)	32e#\	.	]	.	.	.
=56	=56	=56	=56	=56	=56	=56	=56	=56	=56
*ped	*	*	*	*	*	*	*	*	*
!	!	!	!LO:TX:a:i:t=tranquillo	!	!	!LO:DY:a	!	!	!
!	!	!	!LO:N:vis=2	!	!	!	!	!	!
4r	.	.	(16a#X/LL	2A#X</ 2a#	.	p	[1ccc#	.	.
.	.	.	16f#/	.	.	.	.	.	.
.	.	.	16c#/	.	.	.	.	.	.
.	.	.	16F#</JJ)	.	.	.	.	.	.
(16c#\LL	.	.	4r	.	.	.	.	.	.
16F#\	.	.	.	.	.	.	.	.	.
16C#\	.	.	.	.	.	.	.	.	.
*Xped	*	*	*	*	*	*	*	*	*
16FF#\JJ)	.	.	.	.	.	.	.	.	.
*ped	*	*	*	*	*	*	*	*	*
4r	.	.	16B</LL (16b	2ryy	.	.	.	.	.
.	.	.	16f#/	.	.	.	.	.	.
.	.	.	16c#/	.	.	.	.	.	.
*Xped	*	*	*	*	*	*	*	*	*
.	.	.	16G#</JJ)	.	.	.	.	.	.
*ped	*	*	*	*	*	*	*	*	*
(16B\LL	.	.	4c#/ 4e#X 4cc#	.	.	.	.	.	.
16G#\	.	.	.	.	.	.	.	.	.
16C#\	.	.	.	.	.	.	.	.	.
*Xped	*	*	*	*	*	*	*	*	*
16FF#\JJ)	.	.	.	.	.	.	.	.	.
!!LO:LB:g=original
=57	=57	=57	=57	=57	=57	=57	=57	=57	=57
*ped	*	*	*	*	*	*	*	*	*
4r	.	.	(16A#X/LL 16a#X	2ryy	.	.	8ccc#\L]	.	.
.	.	.	16f#/	.	.	.	.	.	.
.	.	.	16c#/	.	.	.	(16ccc#\L	.	.
.	.	.	16F#</JJ)	.	.	.	16bb#X\JJ)	.	.
(16A#X\LL	.	.	4c#/ 4cc#	.	.	.	(16bb#\LL	.	.
16F#\	.	.	.	.	.	.	16bbn\)	.	.
16C#\	.	.	.	.	.	.	(16bb\	.	.
16FF#\JJ)	.	.	.	.	.	.	16aa#X\JJ)	.	.
4r	.	.	16ff#/LL	(4f#\	.	.	(16aa#\LL	.	.
.	.	.	16cc#/	.	.	.	16gg#\)	.	.
.	.	.	16a#/	.	.	.	(16gg#\	.	.
*Xped	*	*	*	*	*	*	*	*	*
.	.	.	16c#/JJ)	.	.	.	16ff#\JJ)	.	.
*ped	*	*	*	*	*	*	*	*	*
(16b>\LL	1	.	4g#/ 4ddn 4ff# 4gg#	4ryy	.	.	(16ff#\LL	.	.
16f#>\	2	.	.	.	.	.	16een\)	.	.
16dn>\	4	.	.	.	.	.	(16ee\	.	.
*Xped	*	*	*	*	*	*	*	*	*
16F#\JJ)	1	.	.	.	.	.	16ddn\JJ)	.	.
=58	=58	=58	=58	=58	=58	=58	=58	=58	=58
*ped	*	*	*	*	*	*	*	*	*
!	!	!	!LO:N:vis=2	!	!	!	!	!	!
8FF#/	.	.	16aan/LL	(2an\ 2aan	.	.	1cc#	.	.
.	.	.	16ff#/	.	.	.	.	.	.
8r	.	.	16cc#/	.	.	.	.	.	.
.	.	.	16f#/JJ)	.	.	.	.	.	.
(>16cc#>\LL	.	.	4ryy	.	.	.	.	.	.
16f#>\	.	.	.	.	.	.	.	.	.
16c#\	.	.	.	.	.	.	.	.	.
*Xped	*	*	*	*	*	*	*	*	*
16F#\JJ)	.	.	.	.	.	.	.	.	.
*ped	*	*	*	*	*	*	*	*	*
4r	.	.	16bb/LL	4b\	.	.	.	.	.
.	.	.	16ff#/	.	.	.	.	.	.
.	.	.	16cc#/	.	.	.	.	.	.
.	.	.	16g#/JJ	.	.	.	.	.	.
(16b>\LL	.	.	4cc#/ 4ee#X 4ccc#	4ryy	.	.	.	.	.
16g#>\	.	.	.	.	.	.	.	.	.
16c#>\	.	.	.	.	.	.	.	.	.
*Xped	*	*	*	*	*	*	*	*	*
16F#\JJ)	.	.	.	.	.	.	.	.	.
*	*	*	*v	*v	*	*	*	*	*
=59	=59	=59	=59	=59	=59	=59	=59	=59
*ped	*	*	*	*	*	*	*	*
N(>16FF#\LL	.	.	4ff#/ 4aa	.	.	(16dd\LL	.	.
16C#\	.	.	.	.	.	16cc#\)	.	.
16F#\	.	.	.	.	.	(16cc#\	.	.
16A\JJ	.	.	.	.	.	16b\JJ)	.	.
16c#\LL	.	.	8.ryy	.	.	(16b/LL	.	.
16f#\	.	.	.	.	.	16a/)	.	.
16a\JJ	.	.	.	.	.	(16a/	.	.
16r	.	.	16cc#/	.	.	16g#/JJ)	.	.
*Xped	*	*	*	*	*	*	*	*
4r	.	.	8ff#/N)	.	.	(16g#/LL	.	.
.	.	.	.	.	.	16f#/)	.	.
.	.	.	8r	.	.	(16f#/	.	.
.	.	.	.	.	.	16e/JJ)	.	.
4r	.	.	4r	.	.	(16e/LL	.	.
.	.	.	.	.	.	16d/)	.	.
.	.	.	.	.	.	(16d/	.	.
.	.	.	.	.	.	16c#/JJ)	.	.
!!LO:LB:g=original
*	*	*	*clefF4	*	*	*	*	*
=60	=60	=60	=60	=60	=60	=60	=60	=60
*	*	*	*^	*	*	*	*	*
!LO:TX:a:i:t=marcato	!	!	!	!	!	!	!	!	!
(4C#/	.	.	4r	4ryy	.	.	[1c#	.	.
4EE#X/	.	.	2c#/	4G#\ 4B	.	p	.	.	.
4FF#/)	.	.	.	2F#\ 2A	.	.	.	.	.
(16AA/LL	.	.	4d#X/	.	.	.	.	.	.
16GG#/)	.	.	.	.	.	.	.	.	.
(16GG#/	.	.	.	.	.	.	.	.	.
16FF#/JJ)	.	.	.	.	.	.	.	.	.
*	*	*	*v	*v	*	*	*	*	*
=61	=61	=61	=61	=61	=61	=61	=61	=61
*ped	*	*	*	*	*	*	*	*
!LO:TUP:a	!	!	!	!	!	!	!	!
N(>12CC#\L	.	.	4E#X\ 4G# 4e#X	.	.	8c#/]	.	.
12GG#\	.	.	.	.	.	.	.	.
.	.	.	.	.	.	8r;	.	.
12C#\J	.	.	.	.	.	.	.	.
*	*	*	*clefG2	*	*	*	*	*
!	!	!	!LO:TX:a:i:t=m.dr.	!	!	!	!	!
4ryy	.	.	16E#X</LL	.	.	4r	.	.
.	.	.	16G#</	.	.	.	.	.
.	.	.	16e#X/	.	.	.	.	.
.	.	.	16c#/JJ	.	.	.	.	.
!LO:TUP:a	!	!	!	!	!	!	!	!
!LO:TX:i:t=m.g.	!	!	!	!	!	!	!	!
12g#>\L	.	.	4ryy	.	.	2r	.	.
12cc#>\	.	.	.	.	.	.	.	.
12ee#X>\J	.	.	.	.	.	.	.	.
*	*	*	*8va	*	*	*	*	*
4ryy	.	.	16gg#/LL	.	.	.	.	.
!	!	!	!LO:TX:b:i:t=m.dr.	!	!	!	!	!
.	.	.	16ccc#/	.	.	.	.	.
.	.	.	16.ggg#/	.	.	.	.	.
.	.	.	32cccc#/JJk	.	.	.	.	.
=62	=62	=62	=62	=62	=62	=62	=62	=62
!	!	!	!	!	!	!LO:TX:a:t=agitato	!	!
1r	.	.	4cccc#\N)	.	.	2ee#X\	f	.
*	*	*	*X8va	*	*	*	*	*
.	.	.	4r	.	.	.	.	.
.	.	.	2r	.	.	(4.ff#\	.	.
.	.	.	.	.	.	8gg#\)	.	.
=63	=63	=63	=63	=63	=63	=63	=63	=63
1r	.	.	1r	.	.	(4gg#\	.	.
.	.	.	.	.	.	4b\)	.	.
.	.	.	.	.	.	8r	.	.
.	.	.	.	.	.	8b`\L	.	.
.	.	.	.	.	.	(8b\	.	.
.	.	.	.	.	.	8cc#\J)	.	.
=64	=64	=64	=64	=64	=64	=64	=64	=64
1r	.	.	1r	.	.	(4.dd\	.	.
.	.	.	.	.	.	8b\)	.	.
.	.	.	.	.	.	(4.g#/	.	.
.	.	.	.	.	.	8f#/)	.	.
=65	=65	=65	=65	=65	=65	=65	=65	=65
.	.	.	.	.	.	(16qqe#X/LL	.	.
.	.	.	.	.	.	16qqf#/	.	.
.	.	.	.	.	.	16qqg#/JJ	.	.
1r	.	.	1r	.	.	4f#/	.	.
.	.	.	.	.	.	4e#/)	.	.
.	.	.	.	.	.	8r	.	.
.	.	.	.	.	.	8e#'/L	.	.
.	.	.	.	.	.	(8f#/	.	.
.	.	.	.	.	.	8g#/J)	.	.
=66	=66	=66	=66	=66	=66	=66	=66	=66
1r	.	.	1r	.	.	(2a/	.	.
.	.	.	.	.	.	4.e#X/)	.	.
.	.	.	.	.	.	8f#`/	.	.
=67	=67	=67	=67	=67	=67	=67	=67	=67
2r	.	.	2r	.	.	(4f#/	.	.
.	.	.	.	.	.	4c#/)	.	.
4r	.	.	4r	.	.	2r	.	.
4CC#\ 4C#	.	.	4G#/ 4B</ 4e#X</	.	f	.	.	.
==	==	==	==	==	==	==	==	==
*-	*-	*-	*-	*-	*-	*-	*-	*-
!!!RDF**kern: N = linked
!!!RDF**kern: | = vertical stroke
!!!RDF**kern: < = below
!!!RDF**kern: > = above
!!!system-decoration: s1[(s2,s3)]
!!!ENC: Andrzej Gręziak
!!!END: 2022-07-21
!!!ENC: Urszula Świątek
!!!END: 2022-08-17
